X:1
T:Symphony No. 9 in D Minor
T:First Movement
T:Ludwig van Beethoven
T:Except for the first 16 measures, arranged by Franz Liszt 
%%score { ( 1 4 5 ) | ( 2 3 6 ) }
L:1/8
Q:1/4=88
M:2/4
K:F
V:1 treble nm="Piano"
V:4 treble 
V:5 treble 
V:2 bass 
V:3 bass 
V:6 bass 
V:1
!pp!"^Allegro, ma non troppo, un poco maestoso" [A,E]4- | [A,E]3 z3/4!p! e/4 | A2 z7/4 A/4 | %3
 E2 z7/4[K:bass]!mp! E,,/4 | A,,,2 z2 | z2 z7/4[K:treble]!p! a/4 | e2 z7/4 e/4 | %7
 A2 z7/4[K:bass]!mp! E,,/4 | A,,,2 z2 | z4 |[K:treble] z7/4!mp! a/4 e z3/4 e/4 | %11
 A z3/4 A/4 E z3/4[K:bass] E,,/4 | A,,,/[K:treble] .[Aa]/[Aa]/e/ z/ .[Ee]/[Ee]/A/ | %13
 z/!mf! .A/A/E/ z/[K:bass] .E,,/E,,/A,,,/ |[K:treble] z/ .[Aa]/[Aa]/D/!f! D/A/A/a/ | %15
 a/a'/a'/a/ a/A/[DA]/ z/4!ff! [dd']/4 | [Aa]2- [Aa]7/4[Ff]/4 | [Dd]7/4[A,A]/4 [F,F]3/2[A,A]/4F/4 | %18
 D2- D/ .[Ff]/.[Ee]/.[Dd]/ | .[Aa].[Gg].[Ee].[Aa] | [Dd]3/2 z/ [EA^ce]3/2 z/ | [FAdf]3/2 z/ z2 | %22
 [GBdg]3/2 z/ [Ad^fa]3/2 z/ | [Bdgb]2 [gbg']2- | [g-bg'-]3!ff! .[g-ag'-] | %25
 .[gbg'].[fbf'].[_egb_e'].[dgbd'] | [^cgb^c']!f! A/>A/ AA | [G=eg]2 [E^ce]7/4[Fdf]/4 | %28
 [Fdf] A/>A/ AA | [Afa]2 [Fdf]7/4[Geg]/4 |!f! [Geg] z [B^ceb]2- | [Bceb]2 [df=bd']2- | %32
 [dfbd']2 [FAdf] z | [Adfa]2- [Adfa]/b/4a/4g/4f/4e/4d/4 | %34
"_dim." ^c/4d/4=c/4B/4A/4G/4F/4E/4!p! D z | z2 z7/4 d/4 | A2 z7/4 A/4 | D2 z7/4[K:bass] A,,/4 | %38
 D,,2 z2 | z2 z7/4[K:treble] a/4 | d2 z7/4 d/4 | A2 z7/4[K:bass] A,,/4 | D,,2 z2 | z4 | %44
[K:treble] z7/4!mp! a/4 d z3/4 d/4 | A z3/4 A/4 (6:4:6D/A,/D/A,/D/A,/ | z/ .a/a/d/ z/ .d/d/A/ | %47
 z/!mf! .A/A/D/ (6:4:6[DA]/A,/[DA]/D/d/D/ | z/!f! d'/d'/d/ d/D/D/d/ | d/D/D/d/ D/d/D/ z/4 [Bb]/4 | %50
 [Ff]2- [Ff]7/4[Dd]/4 | [B,B]7/4F/4 D3/2F/4D/4 | B,2- B,/.[Dd]/.[Cc]/.[B,B]/ | %53
 .[Ff].[_E_e].[Cc].[Ff] | .[Dd] z z/!f! .[Ff]/.[_E_e]/.[Dd]/ | %55
 .[Bb]/!f!!8va(! .[fbf']/.[_eb_e']/.[dbd']/ [bb']!8va)! z | [=E=e] z z/!f! .[Gg]/.[Ff]/.[Ee]/ | %57
 .[^c^c']/!f!!8va(! .[gbg']/.[fbf']/.[ebe']/ .[^c'^c'']!8va)! z | %58
 [Fdf] z z/ .[Ada]/.[Gdg]/.[Fdf]/ | %59
 [dd']/!f!!8va(! .[ad'a']/.[gd'g']/.[fd'f']/ .[d'd'']/!8va)! .[Ada]/.[Gdg]/.[^Fd^f]/ | %60
 .[dd']/!8va(! .[ad'a']/.[gd'g']/.[^fd'^f']/ .[d'd'']/!8va)! .[Bdb]/.[Ada]/.[Gdg]/ | %61
 [dd']/!f![B,DB]/[A,DA]/[G,DG]/ [F=Bf]/[FBf]/[FBe]/[FBd]/ | [Aa]4 | .[^cg].[df].[Ge].d | %64
 .[B^c].d.[Ge].[df] | [eg]3/2 z/ [df]3/2 z/ | [E^ce]3/2 z/ z2 | %67
 .A/[Aa]/.[Bb]/[Aa]/ .[Bb]/[Aa]/.[Bb]/[Aa]/ | .[Gg]/[Aa]/.[Ff]/[Aa]/ .[Ee]/[Aa]/.[Dd]/[Aa]/ | %69
 .[^C^c]/!f![Bb]/.d/[Bb]/ .[Ee]/!f![Bb]/.f/[Bb]/ | .[Gg]/!f!b/.B/b/ .[Bfg]/!f!b/.B/b/ | %71
 .[Gce]/!f!g/.e/g/ .[Bce]/!f!b/.B/b/ |!>(! [A_e_g]/c'/A/c'/ [Aef]/c'/!>)!!p!A/c'/ | %73
 [c_e]3 [df]/[eg]/ | [_eg][df]/[ce]/ [ce][Bd]/[Ac]/ | cB x2 | F_E/D/ [Bd][Ac]/B/ | %77
 [F_e-]2 e[Fdf]/[Geg]/ | [G_eg][Fdf]/[_Ece]/ [Ece][DFd]/[Cc]/ ||[K:Bb] [DFd]3 !>![Gg] | %80
 [Ff]3 !>![Bb] | [Aa]3 e | [cc']3 !>![gg'] | [ff']!<(! [Dd]2 [Gg]/[Ff]/ | z [Ff]2 [cc']/[Bb]/!<)! | %85
!mf! z!>(! [Aa]2 [dd']/[cc']/ | z [cc']2!8va(! [gg']/[_g_g']/!>)! |!p! f'4- | f'f'/>e'/ .e'.e' | %89
 d'4- | d'd'/>c'/ .c'.c'!8va)! |"_cresc." [Bb]3 [Aa] | %92
 .[_A_a]/ ([Gg]/.[Ff]/) ([Ee]/.[Dd]/) ([Dc]/.[EB]/) ([B,FA]/ | %93
.[B,G]/) ([DF]/.[CE]/) ([B,D]/.[=A,C]/)[I:staff +1] ([G,B,]/.[F,A,]/) ([E,G,]/ | %94
 .F,/)!f![I:staff -1] z/ [Bdfb] z [Acfa] |!p! b3 a | ._a/ x3/2 x/ d'/e'/ f'/ | [gg']3 [^f^f'] | %98
 .[=f=f']/ (g/.a/) (=b/.c'/) ([_ad']/.[ge']/) ([ff']/ |"_cresc." [ec'e']3) ([dbd'] | %100
 .[cac']/) ([Bb]/.[Aa]/) ([Gg]/.[Ff]/) ([Ee]/.[Dd]/) [Cc]/ | .[FBf].[=EB=e]/>.[EBe]/ .[FBf] z | %102
 .[GBg].[^FB^f]/>.[FBf]/ .[GBg] z | g3 a/b/ | d2 cd/e/ | .[FBf].[=EB=e]/>.[EBe]/ .[FBf] z | %106
 .[_GB_g].[FBf]/>.[FBf]/ .[GBg] z | ^f2 ^g^a/=b/ | ^d2 ^cd/=e/ |!pp! [^F^d^f]4 | [=B^d=b]4 | %111
 [^c=e^c']4 |!8va(! [^c'^f'-]4 | [ff']/!8va)!!pp!=e/^d/^c/ =B/^A/^G/^F/ | %114
 =E/^D/^C/=B,/ _B,/_C/B,/B,/ | B,/A,/=E/F/ [_G_g][Ff] | B,/_A/^F/G/ [Bb][=Aa] | %117
 D/c/A/B/ [dd'][cc'] | e/^c/d/F/ f/d/e/G/ | _g2- g/f/e/c/ | [A,C_G-]2 G/F/E/C/ | %121
 [Bd=g-]2 g/f/d/B/ | [B,DG-]2 G/F/D/B,/ |"_cresc." [_Gc_g-]2 g/f/e/c/ | [A,C_G-]2 G/F/E/C/ | %125
 [Bd=g-]2 g/f/d/B/ | [B,DG-]2 G/F/D/B,/ | _g/f/e/c/ z2 | =g/f/d/B/ z2 | %129
!mp!"_cresc." [_G_g]/[Ff]/[Aa]/[Ff]/ [cc']/[Ff]/[cc']/[Bb]/ | %130
 [_G_g]/[Ff]/[Aa]/[Ff]/ [cc']/[Ff]/[cc']/[Bb]/ |!f! !^!e' x x2 | %132
!f! f/4!mp!g/4f/4e/4 d/4e/4d/4c/4 B/4c/4d/4e/4 f/4g/4a/4b/4 |!f! !^![cc'] x x2 | %134
!f! _a/4!mp!b/4a/4g/4 f/4g/4f/4e/4 d/4e/4f/4g/4 a/4b/4c'/4d'/4 |!f! !^![ee'] x x2 | %136
!f! c'/4!mp!d'/4c'/4b/4 =a/4b/4a/4g/4 f/4g/4a/4b/4 c'/4d'/4e'/4f'/4 | %137
!ff! .[fbf']/!p! b/d'/a/- a/g/b/f/- | f/e/g/d/ c/B/!ff! .[Bb]/>.[Bb]/ | z/!p! g/c'/f/- f/e/g/d/- | %140
 d/c/g/e/ d/c/!ff! .[cgc']/>.[cc']/ | z/!p! d/_a/f/ e/d/f/c'/ | %142
 b/_a/g/[cf]/ e/d/!ff! .[dad']/>.[dd']/ | .[GBe][ege'] z/ B/e/_A/ | %144
 z/ b/e'/b/!8va(! [_a_a']/[gg']/[ff']/[ee']/ | !>![e=ae']!f!.[dbd']/ z/ !>![dbd']!f!.[cgc']/ z/ | %146
 !>![cgc']!f!.[Bdb]/ z/!ff! !^!g'f'!8va)! | !>![EAce]!ff!.[DBd]/ z/ !>![DBd]!ff!.[CGc]/ z/ | %148
 !>![CGc]!ff!.[B,DB]/ z/!ff! (5:4:5b/4c'/4b/4a/4b/4 c'/a/ |!ff! [Bb] [B,B]/>[B,B]/ [Dd]2- | %150
 [Dd]!ff! [Dd]/>[Dd]/ [Ff]2- | [Ff][Ff]/>[Ff]/ [Bb]2- | [Bb].[Bb]/>.[Bb]/ .[dd'].[dd']/>[dd']/ | %153
 .[ff'].[Bb]/>[Bb]/ !>![dd'].[Ff]/>[Ff]/ | .[Bb].[Dd]/>[Dd]/ .[Ff].[B,B]/>[B,B]/ | %155
 .[Dd].F/>F/ .B.D/>D/ | .[F,F].B,/>B,/ .[B,D].B,/>B,/ | .[B,DB] z z7/4"_dim." b/4 | %158
 B z z7/4!p! B,/4 |!pp! (6:4:6A,/!>(!A,/A,/A,/A,/A,/ (6:4:6A,/A,/A,/A,/A,/A,/ | %160
 (6:4:6A,/A,/A,/A,/A,/A,/ (6:4:6A,/A,/A,/A,/A,/A,/!>)! || %161
[K:F]!ppp! (6:4:6E/A,/E/A,/E/A,/ (6:4:6E/A,/E/A,/E/A,/ | %162
 (6:4:6E/A,/E/A,/E/A,/ (6:4:6E/A,/E/A,/E/A,/ | (6:4:6E/A,/E/A,/E/A,/ (6:4:6E/A,/E/A,/E/A,/ | %164
 (6:4:6z/ A,/E/A,/E/A,/ (6:4:6E/A,/E/A,/E/A,/ | (6:4:6E/A,/E/A,/E/A,/ (6:4:6E/A,/E/A,/E/A,/ | %166
 (6:4:6E/A,/E/A,/E/A,/ (6:4:6E/A,/E/A,/E/A,/ | (6:4:6E/A,/E/A,/E/A,/ (6:4:6E/A,/E/A,/E/A,/ | %168
 (6:4:6E/A,/E/A,/E/A,/ (6:4:6E/A,/E/A,/E/A,/ | %169
 (6:4:6[EA]/A,/A/A,/A/A,/ (6:4:6[DA]/A,/[DA]/A,/[DA]/A,/ | %170
 (6:4:6[DA]/A,/[DA]/A,/[DA]/A,/ (6:4:6[DA]/A,/[DA]/A,/[DA]/A,/ | %171
 (6:4:6[DA]/A,/[DA]/A,/[DA]/A,/ (6:4:6[DA]/A,/[DA]/A,/[DA]/A,/ | %172
 (6:4:6z/ A,/[DA]/A,/[DA]/A,/ (6:4:6[DA]/A,/[DA]/A,/[DA]/A,/ | %173
 (6:4:6[DA]/A,/[DA]/A,/[DA]/A,/ (6:4:6[DA]/A,/[DA]/A,/[DA]/A,/ | %174
 (6:4:6[DA]/A,/[DA]/A,/[DA]/A,/ (6:4:6[DA]/A,/[DA]/A,/[DA]/A,/ | %175
 (6:4:6[DA]/A,/[DA]/A,/[DA]/A,/ (6:4:6[DA]/A,/[DA]/A,/[DA]/A,/ | %176
 (6:4:6[DA]/A,/[DA]/A,/[DA]/A,/ (6:4:6[DA]/A,/[DA]/A,/[DA]/A,/ | %177
 (6:4:6[DA]/A,/[DA]/A,/[DA]/A,/ (6:4:6[DB]/B,/[DB]/B,/[DB]/B,/ | %178
 (6:4:6[DB]/B,/[DB]/B,/[DB]/B,/ (6:4:6[DB]/B,/B/B,/B/ z/ | %179
 (6:4:6z/ D/[GB]/D/[GB]/D/ (6:4:6[GB]/D/[GB]/D/[GB]/D/ | %180
 (6:4:6[GB]/D/[GB]/D/[GB]/D/ (6:4:7[GB]/D/[GB]/D/[GB]/ z/4!p! [dd']/4 | [dgb]2 [dgb]7/4[Bdg]/4 | %182
 [GBd]7/4[db]/4 [Bdg] z3/4 D/4 |!ppp! (6:4:6z/ [^FA]/c/[FA]/c/[FA]/ (6:4:6c/[FA]/c/[FA]/c/[FA]/ | %184
 (6:4:6c/[^FA]/c/[FA]/c/[FA]/ (6:4:7c/[FA]/c/[FA]/c/ z/4!p! _e'/4 | d'"_cresc."c'c'7/4a/4 | %186
 [^F^f]7/4[Dd]/4 [Cc]z/[A,A]/4F/4 |!ff! _E .[cc']/>[cc']/ !^![_e_e']2- | %188
 [ee'].[Aa]/>[Aa]/ !^![cc']2- | [cc'].[^F^f]/>[Ff]/ !^![Aa].[Cc]/>[Cc]/ | %190
 .[_E_e].[A,A]/>[A,A]/ .[Dd].D/>D/ |!p! g2-!pp! (g/!p!b/).a/.g/ | g2-!pp! (g/!p!b/).a/.g/ | %193
 c'2-!pp! (c'/!p!_e'/).d'/.c'/ | c'2-!pp! c'/!p![Q:1/4=72]"^rit."._e'/.d'/.c'/ | %195
[Q:1/4=88]"^a tempo" .[Bgb]3/2 z/ .[Aa]3/2 z/ | .[GA=cg]3/2 z/ .[^FAc^f]3/2 z/4!p! [dd']/4 | %197
 [Bb]2- [Bb]7/4g/4 | d7/4B/4 G z |!ppp! x _edb | x g(6:4:3gx3/2_a/ |!p! [Gg]2 [Gg]7/4[Ff]/4 | %202
 [Dd]7/4=B/4 G z/ F/4D/4 | x _AG=B | x f z!mp! f |!ff! .[_Adf] .[Ff]/>[Ff]/ !^![A_a]2- | %206
 [Aa].[Dd]/>[Dd]/ !^![Ff]2- | [Ff].[=B,=B]/>[B,B]/ .[Dd].[F,F]/>[F,F]/ | .[_A,_A].D/>D/ .[G,G] z | %209
!p! ([_Ec_e]/!>(![Geg]/).[Fdf]/.[Ece]/!>)!!pp! [ce]2- | %210
!p! [ce]/!>(![G_eg]/.[Fdf]/.[_Ece]/!>)!!pp! [ce]2 |!p! [Ff]2- [Ff]/!>(![_A_a]/.[Gg]/.[Ff]/!>)! | %212
!pp! [Ff]2-!p! [Ff]/.[=B_a]/.[Bg]/.[Bf]/ | .[c_e]3/2 z/ .[cd]3/2 z/ | .[_Ac]3/2 z/ .[F=B]3/2 z/ | %215
"_cresc." [_eac'_e']3/2 z/ [d^fd']3/2 z/ | [c=f_ac']3/2 z/ [=Bd=b] [Gg]- | %217
!f! [Gg]/!mf! x/ x2!f! !^!G- | G3!f! !^!G- | G!f! !^!G2!f! !^!G- | G!f! !^!G2!f! !^!G- | %221
 G!f!.A/.=B/ .c.[Gd] | .[G_e].=e.d.d | !^!G2- .G/.B/.A/.G/ | .d.c.A.d- | d.B.G.d- | d.A.^F!>!d- | %227
 d.c.B.A | .G.F._E!>!_e- | e!f!.[=E=e].[Ff]!>![Gg]- | ([Gg]/[Ff]/).f/._e/ .e/.d/.[Be]/.[Af]/ | %231
 .[Bd]/!f! .[ff']/.[_e_e']/.[dd']/ .[cc']/.[Bb]/.[Aa]/.[Bb]/ | %232
 (!>![db]/[ca]/).[ca]/.[_ec']/ .[ca]/.[ec']/.[db]/.[ca]/ | %233
 (!>![_ec']/[db]/).[db]/.[fd']/ .[db]/.[fd']/.[ec']/.[db]/ | %234
 (!>![dbd']/[cac']/).[cac']/.[_ec'_e']/ .[cac']/.[cfa]/.[dfb]/.[efc']/ | %235
 .[dfb] !>![B,FB]- [B,FB]/.[Dd]/.[Cc]/.[B,B]/ | .[Ff].[_E_e].[Cc]!>![Ff]- | %237
 [Ff].[Dd].[B,B]!>![Ff]- | [Ff].[Cc].[A,A]!>![Ff]- | [Ff].[Dd].[B,B]!>![Gdg]- | %240
 [Gdg].[Dd].D!>![Gdg]- | [Gdg].[Dd].D!>![Fdf]- | [Fdf].[DF=B].[F,=B,D]!>![Fdf]- | %243
 [Fdf].[DF=B].[F,=B,D]!>![E^ce]- | [Ece].[A,A].[A,D]!>![eae']- | [eae'].[Ada].[DAd]!>![dad']- | %246
 [dad'].[EAe].[A,A]!>![dad']- | [dad'].[EAe].[A,A]!>![cc']- | [cc'][^G=B^g][FGf]!>![B-g=b-] | %249
 [Bgb].[dfd'].[f^gf']!>![cc']- | [cc'][^G=B^g][FGf]!>![B-g=b-] | [Bgb].[dfd'].[f^gf'] [^G=B]- | %252
 [GB]2- [GB]/.[=Bd]/.[Ac]/.[^GB]/ | [^G=B]2- [GB]/.[=Bd]/.[Ac]/.[^GB]/ | %254
 [Ac]2- [Ac]/.[ce]/.[=Bd]/.[Ac]/ | [Ac]2- [Ac]/.[ce]/.[=Bd]/.[Ac]/ | =B2- B/.d/.[Ac]/.[^GB]/ | %257
!pp! [^G=B-]2 B/.d/.[Ac]/.[^GB]/ |"^cantabile" A2- (A/!pp!c/).=B/.A/ | A2- (A/!pp!c/).=B/.A/ | %260
 d2- d/.f/.e/.d/ | d2- d/.f/.e/.d/ | a2- a/!pp!.c'/.=b/.a/ | a2- a/!pp!.c'/.=b/.a/ | %264
 d'2-!pp! d'/"_cresc.".f'/.e'/.d'/ | d'2- d'/.[d'f']/.[c'e']/.[bd']/ | %266
!mf!!8va(! .[ac']/.[ac'a']/.[ac'=g']/.[ac'f']/ .[gc'e']/.[gc'g']/.[gc'f']/.[gc'e']/ | %267
 .[fad']/.[faf']/.[fae']/.[fad']/ .[eac']/.[eae']/.[ead']/.[eac']/ | %268
 .[df=b]/.[dfd']/.[dfc']/.[dfb]/!8va)! .[cfa]/.[cfc']/.[cfb]/.[cfa]/ | %269
 .[=Bdg]/.[Bd=b]/.[Bda]/.[Bdg]/ .[Acf]/!>(!.[Aca]/.[Acg]/.[Acf]/!>)! |!pp! e2- e/.a/.=g/.f/ | %271
 e2- e/.a/.=g/.f/ | e2- [Ace]/.[Aca]/.[Acg]/.[Adf]/ | %273
!pp! .[Ae]/ .[A,A]/.[A,G]/.[A,F]/ .[A,E]/ .[FAf]/.[EAe]/.[D^Gd]/ | [Cc]3 !>![Ff] | [Ee]3 !>![Aa] | %276
 [^G^g]3 !>![dd'] | [=B=b]3 !>![Fd-f] | [Ede]/.[Cc]/.[Ee]/.[^G^g]/ .[Aa]!p! z | %279
 .[A,A]/.[Cc]/.[Ff]/.[=G=g]/ .[Aa] z | .[Cc]/.[Ee]/.[Gg]/.[Aa]/ .[Bb] z | %281
 .[EB]/.[Ee]/.[Geg]/.[Afa]/ [Bgb] !>!b- | [be'][af']!<(! .[Aa]/.[cc']/.[ff']/.[aa']/ | %283
 .[fc'f'] z .[Aa]/.[cc']/!8va(!.[ff']/.[aa']/ | .[be'b'] z .e/.g/.[ec']/.[ge']/!<)! | %285
!f! .[gc'g']!>(! z .[cg]/.[ec']/.[ge']/.[c'g']/!>)! |!p! f'/4 z/4 c'/d'/e'/ f'2 | %287
 f'/.c'/.d'/.e'/ f'a | b2- b/d'/.c'/.b/ | b2 b/d'/.c'/.b/ | [fa]/!8va)! x3/2 z/ .a/.g/.f/ | %291
 f2- f/a/g/f/ | b2- b/.[dd']/.[cc']/.[Bb]/ | b2- b/.[dd']/.[cc']/.[Bb]/ | %294
!8va(!"_cresc." e'2 e'/[gbg']/.[faf']/.[ege']/ | e'2 e'/[gbg']/.[faf']/.[ege']/ | %296
 .[ege']/.[gg']/.[ff']/.[ee']/ .[^c^c']/.[ee']/.[dd']/.[cc']/!8va)! | %297
 .[Gg]/.[Bb]/.[Aa]/.[Gg]/ .[Ee]/.[Gg]/.[Ff]/.[Ee]/ | %298
 .[^C^c]/.[Ee]/.[Dd]/.[Cc]/ .[G,G]/.[B,B]/.[A,A]/.[G,G]/ | .E/.F/.E/.D/ .^C/.B,/.A,/.G,/ | %300
!ff! D2 z2 | z2 z7/4!ff! [aa']/4 | [dd']2 z7/4 [dd']/4 | [Aa]2 z7/4[K:bass] [A,,A,]/4 | %304
 [D,^F,A,D]2 z2 |[K:treble] z2 z7/4!8va(! [d'd'']/4 | [aa']2 z7/4 [aa']/4 | %307
 [dd']2!8va)! z7/4[K:bass] [A,,A,]/4 | [D,D] z3/4[K:treble]!8va(! [aa']/4 [dd']!8va)! z3/4 [Aa]/4 | %309
 [Ad] z3/4[K:bass] D,,/4 D,, z3/4 [A,,A,]/4 | %310
 .[D,D]/[K:treble] .[aa']/!>![aa']/[dd']/ z/ .[dd']/!>![dd']/[Aa]/ | %311
 z/ .[Aa]/!>![Aa]/d/ z/ [Dd]/[Dd]/[_a_a']/- | %312
!fff! [aa']/ .[dd']/[d_ad']/[Dd]/ [D_Ad]/[K:bass][D,D]/ [D,_A,D]/[K:treble][Dd]/ | %313
 [D_Ad]/[dd']/ [d_ad']/[Dd]/ [DAd]/[K:bass][D,D]/ .[D,_A,D]/ z/4[K:treble] [dd']/4 | %314
!ff! !^![=Ad=a]2- [Ada]7/4[Ff]/4 | x3 x3/4 [ff']/4 | !^![aa']2- [aa']7/4[ff']/4 | %317
 !^![dd']7/4[Aa]/4 !^![Ff]3/2[Aa]/4f/4 | !^![Dd]2- [Dd]/.[Ff]/.[Ee]/.[Dd]/ | .[Aa].[Gg].[Ee].[Aa] | %320
 [dd']2- [dd']/.[ff']/.[ee']/.[dd']/ | .[aa'].[gg'].[ee'].[aa'] | [D^FAd]3/2 z/ [_EFA_e]3/2 z/ | %323
 !>![_e^fa_e']3/2 z/ !>![fc'd'^f']3/2 z/ | !>![GBdg]3/2 z/ [Ac_e^fa]3/2 z/ | %325
!8va(! !>![gbg']3/2 z/ !>![bg'b']3/2!8va)! z/ | [Bgb]3!ff! .[Ada] | .[Gg].[FGf].[_EG_e].[DGd] | %328
 [aa']3 .[gg'] | .[^f^f'].[_e_e'].[dd'][cc'] | [=B=b]3 .f | x3 (3[^c^c']/[dd']/[ee']/ | %332
 [ff']3 [ee'] | .[dd'].[cc'].[_B_b][Aa] | [^G^g]2!ff! !>![=G=g]2 | x3 (3[^c^c']/[dd']/[ee']/ | %336
 [ee']3 .[dd']!ff! | .[^c^c'].[=B=b].[Aa].[eg] |!p! [eg]3 [^fa]/[g=b]/ | %339
 [g=b][^fa]/[eg]/ [eg][df]/[^ce]/ | ed x2 | z =B/^c/ de/^f/ | ^f[eg]- [eg][fa]/[g=b]/ | %343
 [g=b][^fa]/[eg]/ [eg][^Ff]/[Ge]/ | [^F^f]3 !>![=B=b] | [Aa]3 !>![dd'] | [^c^c']3!8va(! !>![gg'] | %347
 [ee']3 !>![=b=b'] | [aa']!8va)! [^F,D^F]2 [=B,=B]/[A,A]/ | z [A,D^FA]2!mp!!>(! [Ee]/[Dd]/!>)! | %350
!p! z [D=F]2 [_B,_B]/[A,A]/ | z [Aa]2 [ee']/[dd']/ | z!mf! ^c2 [Ff]/[Ee]/ | z e2!mp! [Bb]/[Aa]/ | %354
!p! a3 d' | ^d'e' .e'.e' | f'4 | f'f'/>_e'/ .[c'e'].[c'e'] |"_cresc." [dd']3 ([^c^c'] | %359
 .[=c=c']/) ([Bb]/.[Aa]/) ([Gg]/.[^F^f]/) ([_EA_e]/.[DBd]/) ([CFc]/ | %360
.[B,GB]/)!f! ([=FA]/.[EG]/) ([DF]/.[CE]/) ([B,D]/.[A,C]/)[I:staff +1] ([G,B,]/ | %361
.[F,A,])[I:staff -1] [FAdf]!f! z .a |!p! [dd']3 ([^c^c'] | %363
 .[=c=c']/) ([Bb]/.[Aa]/) ([Gcg]/.[^Fd^f]/) ([F_ef]/.[Gdg]/) [Aa]/ | [Bb]3 [Aa] | %365
[_A_a]/ (B/.c/) (d/._e/) (f/.g/) a/ |!f!!8va(! [gg']3 ([ff'] | %367
 .[=e=e']/)!<(! ([ee']/.[ff']/) ([gg']/.[aa']/) ([a^c'a'-]/.[ad'a']/) .[ae'a']/!<)! | %368
!ff! .[ad'a'].[^gd'^g']/>[gd'g']/ .[ad'a'] z | .[bd'b'].[ad'a']/>[ad'a']/ .[bd'b']!8va)! z | %370
!p! =b3 ^c'/d'/ | [d^f]2 [^ce]2 |!ff! .[Dd].[^C^c]/>[Cc]/ .[Dd] z | .[_E_e].[Dd]/>[Dd]/ .[Ee] z | %374
!p! b2 c'd'/_e'/ | g2 f2 |!pp! [Bgb]4 | [_eg_e']4 | [f_af']4 | [fb-]4 | b/_a/g/f/ _e/d/c/B/ | %381
 _A/G/F/_E/ D/^C/D/D/- | D/^C/^G/A/ [Bb][Aa] | D/c/A/B/ [dd'][^c^c'] | F/e/^c/d/ f/d/e/G/ | %385
 g/e/^f/A/ a/f/g/B/ |!pp! b2- b/.a/g/e/ | B2- B/A/^F/D/ | =b2- b/.a/^f/d/ | =B2- B/A/^F/D/ | %390
"_cresc." _b2- b/.a/g/e/ | B2- B/A/^F/D/ | =b2- b/.a/^f/d/ | =B2- B/A/^F/D/ | _b/a/g/e/ B/A/G/E/ | %395
 =b/a/^f/d/ =B/A/^F/D/ | [_B_b]/[Aa]/[Gg]/[Ee]/ [Bb]/[Aa]/[Gg]/[Ee]/ | %397
 [Bb]/[Aa]/[=F=f]/d/ [Bb]/[Aa]/[=F=f]/d/ | [Bb]/[Aa]/[^c^c']/[Aa]/ [ee']/[Aa]/[ee']/[dd']/ | %399
 [Bb]/[Aa]/[^c^c']/[Aa]/ [ee']/[Aa]/[ee']/[dd']/ |!f! !^!g' x x2 | %401
!f! a/4!mp!_b/4a/4g/4 f/4g/4f/4e/4 d/4e/4f/4g/4 a/4b/4c'/4d'/4 |!f! !^![ee'] x x2 | %403
!f! c'/4!mp!d'/4c'/4b/4 a/4b/4a/4g/4 =f/4g/4a/4b/4 c'/4d'/4e'/4=f'/4 |!f! !^![gg'] x x2 | %405
!f! e'/4!mp!=f'/4e'/4d'/4 ^c'/4d'/4c'/4=b/4 a/4_b/4=c'/4d'/4 e'/4f'/4g'/4a'/4 | %406
!ff! a'/!p! d'/f'/c'/- c'/b/d'/a/ | g/f/e/d/ d!ff! .[dad']/>.[dd']/ | .[EBe]/!p! x3/2 x/ g/b/b/ | %409
 a/g/f/e/ e!ff! .[ebe']/>.[ee']/ | .[^F^f]/!p! x3/2 x/ c'/_e'/e'/ | %411
 d'/c'/b/a/ g/^f/!ff! [fc'^f']/>[ff']/ | x2 x/ b/d'/d'/ | c'/b/^f'/g'/ f'/g'/ g' | %414
 (a'!f!.g'/) z/ (g'!f!.f'/) z/ | (f'!f!._e'/) z/!ff! (5:4:5d'/4=e'/4d'/4^c'/4d'/4 e'/c'/ | %416
 ([Ada].[G_eg]/) z/ ([G^cg].[Fdf]/) z/!ff!!ff! | %417
 ([FBf]._e/) z/ (5:4:5d/4!ff!=e/4d/4^c/4d/4 e/d/!ff! |!ff! .[Dd].[Dd]/>[Dd]/ [Ff]2- | %419
 [Ff].[Ff]/>[Ff]/ [Aa]2- | [Aa].[Aa]/>[Aa]/ [dd']2- | [dd'].[dd']/>[dd']/ .[ff'].[ff']/>[ff']/ | %422
 .[aa'].[dd']/>[dd']/ .[ff'].[Aa]/>[Aa]/ | .[dd'].[Ff]/>[Ff]/ .[Aa].[Dd]/>[Dd]/ | %424
 .[Ff].[A,A]/>[A,A]/ .[Dd] F/>F/ | .AD/>D/ [Dd]!>(! x3/4 [dd']/4!>)! |!p! [Aa]2- [Aa]7/4f/4 | %427
 d7/4A/4 F3/2A/4F/4 |!pp! D2- D/F/.E/.D/ | D2 ^C/B/A/z/4G/4- |!p! g2- g7/4e/4 | %431
 ^c7/4B/4 z/ b/a/z/4g/4- | [gg']2- [gg']7/4[ee']/4 | [^c^c']3/2b/4g/4 ^f x |!p! c'2- c'7/4a/4 | %435
 ^f7/4_e/4 z/ _e'/d'/z/4c'/4 | [_e^fc']2- [efc']7/4a/4 | ^f3/2_e/4c/4 A x | %438
!p! [cc']z/>[cc']/ [Aa]z/>^f/ | d2- d/_a/g/ z/4 [gg']/4 | [ff']z/>[ff']/ [dd']z/>[=B=b]/ | %441
 [Gg]z/>f/ x/ g/f/e/4c'/4 |!p! bz/>g/ ez/>c/ | Bz/>G/ E x | [Bb]z/>[gg']/ [ee']z/>[^c^c']/ | %445
 [Bb]z/>g/ e/[Gg]/[Ff]/z/4[Ee]/4 |!p! [^C^c]z/>!p![B,B]/ [G,G]/ [gg']/[ff']/z/4[ee']/4 | %447
 z/!p! [eg]/[eg]/ z/ [Gg]/ [Bb]/[Aa]/z/4[Gg]/4 |!p! [Gg]z/>[Ee]/ [^C^c]/ [ee']/[dd']/z/4[c^c']/4 | %449
 z/ [eg]/[eg]/ z/ [Gg]/ [Bb]/[Aa]/z/4[Gg]/4 | [Gg]z/>[Ee]/ [^C^c]/ [Bb]/[Aa]/z/4[gg']/4 | %451
 z/ [b^c']/[=c'^c']/ z/ [^cc']/!8va(! [bb']/[aa']/z/4[bb']/4 | %452
!ff! [aa']3[Q:1/4=88] [^g^g'][Q:1/4=60]"_ten." | %453
 .[=g=g']/ ([ff']/.[ee']/)!8va)! ([dd']/[^c^c']/) ([Bb]/.[Aa]/) ([Gg]/ | %454
 .[Ff]/)!mf! ([Gg]/!<(!.[Aa]/) ([Bb]/.[cc']/) ([dd']/.[ee']/) [ff']/!<)! | %455
!ff! .[ebd'e'].[ebd'e'] z .[ea^c'e'] |!p! [Aa]3 [^G^g] | %457
 [=G=g]/ ([Fdf]/.[Geg]/) ([Afa]/.[Bgb]/) ([^ca^c']/.[dbd']/) ([ec'e']/ | %458
!ff! [ff']3)[Q:1/4=60] [ee'][Q:1/4=88] | %459
.[_e_e']/ ([dd']/.[cc']/) ([Bb]/.[Aa]/) ([ga]/.[fb]/) ([ec']/ | %460
.[dd']/) (^F/.G/) (A/.B/) (c/.d/) ([Ee]/ | %461
.[^F^f]/) ([Gg]/.[Aa]/) ([Bb]/.[cc']/) ([dd']/.[ee']/) ([f^f']/ | %462
 .[gg']) .[Bdb]/>[Bdb]/ .[Bdb]!ff! .A,/>A,/ | %463
 .A,[Q:1/4=60]"_ten." .[Bdb]/>[Q:1/4=88][Bb]/[_e_e']!ff! .B,/>B,/ | %464
 .B,[Q:1/4=60]"_ten." .[^ca^c']/>[Q:1/4=88][cac']/ [cac']2- | %465
 [cac'][Q:1/4=60]"_ten."!8va(! [f^c'f']/>[Q:1/4=88][fc'f']/ [fc'f']2- | %466
 [fc'f'] .[dd']/>[dd']/ .[dd'].[gd'g']/>[gd'g']/ | .[gd'g'].[ee']/>[ee']/ .[ee'].[aa']/>!8va)!A/ | %468
!p! A z z2 | ^c2- c/e/.d/.c/ | d2- d/^f/.e/.d/ | [^ce]2- [ce]/[eg]/.[d^f]/.[ce]/ | %472
 [d^f]2- [df]/[fa]/.[eg]/.[df]/ | [^ce^c']2- [cec']/[ege']/.[d^fd']/.[cec']/ | %474
 [d^fd']2- [dfd']/[fa^f']/.[ege']/.[dfd']/ | [e^c'e']2- [ec'e']/[ge'g']/.[^fd'^f']/.[ec'e']/ | %476
 =f'/!p!a'/g'/f'/ e'/d'/^c'/d'/ | d'/^c'/c'/e'/ c'/e'/d'/c'/ | d'/ a/g/f/ e/d/^c/d/ | %479
 f/e/e/g/ e/g/f/e/ | f/ z/"^cresc." .A.A.A | .A.A.A.A | e/d/.d/.f/ .d/.f/.e/.d/ | %483
 e'/d'/.d'/.f'/ .f/.f'/.e'/.d'/ | F/E/.E/.G/ .E/.G/.F/.E/ | g/f/.f/.a/ .A/.a/.g/.f/ | %486
 A/G/.G/.B/ .B,/.B/.A/.G/ | b/a/.a/.c'/ .c/.c'/!mf!.b/.a/ | c/B/.B/.d/ .D/!f!.d/.c/.B/ | %489
 e/d/.d/.f/ .d/.f/"_dim."._e/.d/ | c'/b/.b/.d'/ .d/.d'/.c'/.b/ | f/_e/!p!.e/.g/ .e/.g/.f/.e/ | %492
!pp! _e'/d'/.d'/.f'/ .d'/.f'/.e'/.d'/ | =e/d/.d/.f/ .d/.f/"_cresc.".e/.d/ | %494
 A/4a/4A/4a/4 =B/4=b/4B/4b/4 ^c/4^c'/4c/4c'/4 d/4d'/4d/4d'/4 | %495
 e/4e'/4e/4e'/4 f/4f'/4f/4f'/4 g/4g'/4g/4g'/4 a/4a'/4a/4a'/4 | %496
!f! .[ff']/ ([eae']/.[dbd']/) ([cc']/.[Bb]/) ([Ada]/.[Gdg]/) [Fdf]/ | .[Ede].[Ede] z .[ea^c'e'] | %498
!p! [A,A]3 [^G,^G] | [=G,=G]/ x2 z/ [Aa]- | [Aa]/ [A,A] [A,A] [Aa] ([^Gf^g]/ | %501
.[=Gg]/) ([Ff]/.[ee']/) ([dd']/.[^c^c']/) ([Bb]/.[Aa]/) [A-ga-]/ | %502
 .[Afa]/ ([Bgb]/.[cac']/) ([dbd']/.[e^c'e']/) ([fd'f']/.[ge'g']/) ([af'a']/ | %503
.[ge'g']) .[gd'e'g'] z .[e^c'e'] |!p! [B^ce]2- [B-ce]/!>(![Bcg]/.[Bcf]/.[Bce]/!>)! | %505
!pp! [Be]2- [Be]/!p![Q:1/4=72]"^ritard".[Bb]/.[ea]/.[eg]/ | %506
!pp![Q:1/4=88]"^a tempo" [=Bdf]3/2 z/ [=Gde]3/2 z/ | .[GBd]3/2 z/ .[GB^c]3/2 z/ | %508
!p! x2 z/ .g/.a/.b/ | b x z/[Q:1/4=72]"^ritard" .[Beb]/.[Aea]/.[Geg]/ | %510
!p![Q:1/4=88]"^a tempo" x3/2 d'/ x3/2 e'/ | x3/2 d'/ x3/2 ^c'/ | z2[K:bass]!p! [D,D]2- | %513
 [D,D]z/.[D,A,]/.[D,D]z/.[F,DF]/ | x z/[K:treble] .[FA]/.[FAd]z/.[FAf]/ | f2 Te2 | %516
 d2[K:bass] [F,DF]2- | [F,DF]z/.[F,A,D]/.[F,DF]z/[K:treble].[A,FA]/ | z3/2 .[FAd]/.[Fdf]z/.[Afa]/ | %519
 [Afa]2 Tg2 |"_cresc." f z/ .[Afa]/.[dfd']z/.[faf']/ |!mp! [faf']2 Te'2 |"_cresc." d'2 x2 | %523
!mf! [Afa]2 Tg2 |"_cresc." [Fdf] z/ .[dad']/.[fd'f']z/.[af'a']/ |!f! [af'a']2 Tg'2 | %526
!f! [fd'f']2 z3/2 [fd'f']/ | !>![ed'e']2 z3/2 [ae'a']/ | !>![fd'f']2 z3/2!8va(! [fd'f']/ | %529
 [ed'e']z/[ed'e']/ [e^c'e']z/[ae'a']/ |!ff! [^fd'^f']2-!8va)! [Fdf]7/4!8va(![fd'f']/4 | %531
 [^fd'^f']2-!8va)! [Fdf]7/4!8va(![fd'f']/4 | [^gd'=f'^g']2-!8va)! [Gdfg]7/4!8va(![^fd'^f']/4 | %533
 [ae'a']2-!8va)! [Aea]7/4!8va(![ae'a']/4 | [^fd'^f']2-!8va)! [Fdf]7/4!8va(![fd'f']/4 | %535
 [^fd'^f']2-!8va)! [Fdf]7/4!8va(![fd'f']/4 | [^gd'=f'^g']2-!8va)! [Gdfg]7/4!8va(![^fd'^f']/4 | %537
 [af'a']2-!8va)! [Afa]7/4!8va(![dd']/4!8va)! |!ff! [aa']2- [aa']7/4[ff']/4 | %539
 [dd']7/4[Aa]/4 [Ff]3/2[Aa]/4[Ff]/4 | .[Dd] z/ [A,A]/4F/4 .D z/ [Dd]/4A/4 | %541
 .F z/ [Ff]/4d/4 .A z/ [Aa]/4f/4 | d2 z/4 d/4e/4f/4g/4a/4=b/4^c'/4 | [dd']2 z2 | %544
 [Dd]2- [Dd]/!ff!.[Ff]/.[Ee]/.[Dd]/ | .[Aa].[Gg].[Ee].[Aa] | [Dd] z[Q:1/4=44] !fermata!z2 |] %547
V:2
!pp!!ped! (6:4:6A,,/E,/A,,/E,/A,,/E,/ (6:4:6A,,/E,/A,,/E,/A,,/E,/ | %1
 (6:4:6A,,/E,/A,,/E,/A,,/E,/ (6:4:6A,,/E,/A,,/E,/A,,/E,/ | %2
 (6:4:6A,,/E,/A,,/E,/A,,/E,/ (6:4:6A,,/E,/A,,/E,/A,,/E,/ | %3
 (6:4:6A,,/E,/A,,/E,/A,,/E,/ (6:4:6A,,/E,/A,,/E,/A,,/E,/ | %4
 (6:4:6A,,/E,/A,,/E,/A,,/E,/ (6:4:6A,,/E,/A,,/E,/!ped-up!!ped!A,,/E,/ | %5
 (6:4:6A,,/E,/A,,/E,/A,,/E,/ (6:4:6A,,/E,/A,,/E,/A,,/E,/ | %6
 (6:4:6A,,/E,/A,,/E,/A,,/E,/ (6:4:6A,,/E,/A,,/E,/A,,/E,/ | %7
 (6:4:6A,,/E,/A,,/E,/A,,/E,/ (6:4:6A,,/E,/A,,/E,/A,,/E,/ | %8
 (6:4:6A,,/E,/A,,/E,/A,,/E,/ (6:4:6A,,/E,/A,,/E,/!ped-up!!ped!A,,/E,/ | %9
 (6:4:6A,,/E,/A,,/E,/A,,/E,/ (6:4:6A,,/E,/A,,/E,/A,,/E,/ | %10
 (6:4:6A,,/E,/A,,/E,/A,,/E,/ (6:4:6A,,/E,/A,,/E,/A,,/E,/ | %11
 (6:4:6A,,/E,/A,,/E,/A,,/E,/ (6:4:6A,,/E,/A,,/E,/A,,/E,/ | %12
 (6:4:6A,,/E,/A,,/E,/A,,/E,/ (6:4:6A,,/E,/A,,/E,/A,,/E,/ | %13
 (6:4:6A,,/E,/A,,/E,/A,,/E,/!mp! (6:4:6A,,/E,/A,,/A,/A,,/A,/!ped-up! | %14
!ped! (6:4:6A,,/A,/A,,/D,,/A,,/D,,/!mf! (6:4:6A,,/D,,/A,,/D,,/A,,/D,,/ | %15
 (6:4:6A,,/D,,/A,,/!f!D,,/A,,/D,,/ (3A,,/D,,/A,,/ D,,/ z/4!ped-up! [D,D]/4 | %16
 [A,,A,]2- [A,,A,]7/4!>![F,,F,]/4 | [D,,D,]7/4[A,,,A,,]/4 !>![F,,,F,,]3/2A,,/4F,,/4 | %18
 [D,,D,]2- [D,,D,]/ .[F,,F,]/.[E,,E,]/.[D,,D,]/ | .[A,,A,].[G,,G,].[E,,E,].[A,,A,] | %20
 [D,,D,]3/2 z/ [A,,^C,E,A,]3/2 z/ | [D,F,A,D]3/2 z/ z2 | [G,,D,G,]3/2 z/ [D,,D,]3/2 z/ | %23
 z2!ped! [B,GB]2- | [B,-GB]3 .A | .[B,G] .[_E,G,B,F]!ped-up!.[E,G,B,_E].[E,G,B,D] | %26
 [=E,G,B,^C]!ped! [A,,A,]/>[A,,A,]/ [A,,A,][A,,A,]!ped-up! |!p! [E,G,]2 [^C,E,]7/4[D,F,]/4 | %28
 [A,,D,F,]!f!!ped! [A,,A,]/>[A,,A,]/ [A,,A,][A,,A,]!ped-up! |!p! [F,A,]2 [D,F,]7/4[E,G,]/4 | %30
 [A,,E,G,] z!ped! [G,,^C,E,B,]2- | [G,,C,E,B,]2!ped-up!!ped! [^G,,D,F,=B,]2- | %32
 [G,,D,F,B,]2!ped-up! [A,,D,F,A,]2- | [A,,D,F,A,]2 [A,,,A,,] z | %34
 .[D,,A,,D,] (3A,/D,/A,/!pp!!ped! (6:4:6D,/A,/D,/A,/D,/A,/ | %35
 (6:4:6D,/A,/D,/A,/D,/A,/ (6:4:6D,/A,/D,/A,/D,/A,/ | %36
 (6:4:6D,/A,/D,/A,/D,/A,/ (6:4:6D,/A,/D,/A,/D,/A,/ | %37
 (6:4:6D,/A,/D,/A,/D,/A,/ (6:4:6D,/A,/D,/A,/D,/A,/ | %38
 (6:4:6D,/A,/D,/A,/D,/A,/ (6:4:6D,/A,/D,/A,/D,/A,/!ped-up! | %39
!ped! (6:4:6D,/A,/D,/A,/D,/A,/ (6:4:6D,/A,/D,/A,/D,/A,/!ped-up! | %40
!ped! (6:4:6D,/A,/D,/A,/D,/A,/ (6:4:6D,/A,/D,/A,/D,/A,/ | %41
 (6:4:6D,/A,/D,/A,/D,/A,/ (6:4:6D,/A,/D,/A,/D,/A,/ | %42
 (6:4:6D,/A,/D,/A,/D,/A,/ (6:4:6D,/A,/D,/A,/!ped-up!!ped!D,/A,/ | %43
 (6:4:6D,/A,/D,/A,/D,/A,/!ped-up!!ped! (6:4:6D,/A,/D,/A,/D,/A,/ | %44
 (6:4:6D,/A,/D,/A,/D,/A,/ (6:4:6D,/A,/!p!D,/A,/D,/A,/ | %45
 (6:4:6D,/[A,D]/D,/[A,D]/D,/[A,D]/ D, z3/4!mp! A,,/4 | %46
 [D,,D,] (3[D,A,]/D/[D,A,]/ (6:4:6D/[D,A,]/D/[D,A,]/D/[D,A,]/ | %47
 (6:4:6[D,A,]/D/[D,A,]/D/[D,A,]/ z/!ped-up!!ped! z/!mf! .A,,/A,,/[D,,D,]/!ped-up! | %48
!ped! (6:4:6D,/D/D,/B,/[B,,D,]/B,/ (6:4:6[B,,D,]/B,/[B,,D,]/B,/[B,,D,]/B,/ | %49
 (6:4:6[B,,D,]/B,/[B,,D,]/B,/!f![B,,D,]/B,/ (3[B,,D,]/B,/[B,,D,]/ B,/!ped-up! z/4!ff! [B,,B,]/4 | %50
 !>![F,,F,]2- [F,,F,]7/4[D,,D,]/4 | [B,,,B,,]7/4!>![F,,F,]/4 [D,,D,]3/2[F,,F,]/4D,/4 | %52
 [B,,,B,,]2- [B,,,B,,]/.[D,,D,]/.[C,,C,]/.[B,,,B,,]/ | .[F,,F,].[_E,,_E,].[C,,C,].[F,,F,] | %54
 .[D,,D,] z z/ .[F,,F,]/.[_E,,_E,]/.[D,,D,]/ | %55
 .[B,,B,]/ .[F,B,F]/.[_E,B,_E]/.[D,B,D]/[K:treble] [B,B] z | %56
[K:bass] [=E,,=E,] z z/ .[G,,G,]/.[F,,F,]/.[E,,E,]/ | %57
 .[^C,^C]/ .[G,B,G]/.[F,B,F]/.[E,B,E]/[K:treble] .[^C^c] z | %58
[K:bass] !^![F,,D,F,] z z/!f! .[A,,D,A,]/.[G,,D,G,]/.[F,,D,F,]/ | %59
 [D,D]/[K:treble] .[A,DA]/.[G,DG]/.[F,DF]/ .[Dd]/[K:bass] .[A,,D,A,]/.[G,,D,G,]/.[^F,,D,^F,]/ | %60
 .[D,D]/[K:treble]!f! .[A,DA]/.[G,DG]/.[^F,D^F]/ .[Dd]/[K:bass] .[B,,D,B,]/.[A,,D,A,]/.[G,,D,G,]/ | %61
 .[D,D]/[B,,,D,,B,,]/[A,,,D,,A,,]/[G,,,D,,G,,]/ [^G,,,D,,^G,,]/[G,,D,^G,]/[G,,D,G,]/[G,,D,G,]/ | %62
 z/!f! (A,/._B,/) (A,/.B,/) (A,/.B,/) A,/ | .[^C,,A,,^C,].[D,,B,,D,] .[E,,C,E,].[F,,D,F,] | %64
 .[G,,E,G,].[F,,D,F,] .[E,,^C,E,].[D,,A,,D,] | [^C,,A,,^C,]3/2 z/ [D,,A,,D,]3/2 z/ | %66
 .[A,,,A,,]/ [A,,A,]/!f!.[B,,B,]/ [A,,A,]/.[B,,B,]/ [A,,A,]/.[B,,B,]/ [A,,A,]/ | .G,.F,.E,.D, | %68
 .^C,.D, .E,.F, |!ped! x/ B,/[G,D]/B,/!ped-up!!ped! x/ B,/[G,F]/B,/!ped-up! | %70
!ped! x/ B,/.G/B,/!ped-up!!ped! x/ B,/.[FG]/B,/!ped-up! | %71
!ped! z/ C/.[EG]/C/!ped-up!!ped! x/ _G,/.[CE]/G,/!ped-up! | %72
!ped! x/ F,/[C_E]/A,/!ped-up!!ped! x/ F,/[CE]/A,/!ped-up! | %73
!p! .F,,!pp! [F,A,C_E]/[F,A,CE]/ [F,A,CE] z | z2 C2 | DB,/B,/ B,C/D/ | DC/B,/ [B,D][F,C]/[D,B,]/ | %77
 .[F,C][F,C_E]/[F,CE]/ .[F,CE] z | z2 z [A,,,A,,]- || %79
[K:Bb]!p! [A,,,A,,]/.[B,,,B,,]/.[^C,,^C,]/.[D,,D,]/ [F,,F,] z | %80
 .[^C,,^C,]/.[D,,D,]/.[F,,F,]/.[A,,A,]/ [B,,B,] z | %81
 .[=C,,=C,]/.[F,,F,]/.[A,,A,]/.[=B,,=B,]/ [C,C] z | .[E,,E,]/.[F,,F,]/.[A,,A,]/.[C,C]/ [E,E] z | %83
 .E,/.D,/.F,/.A,/ .D,,/F,,/A,,/B,,/ | .D,/.F,/.A,/.B,/ .D,,/.F,,/.A,,/.B,,/ | %85
 .C,/.E,/.F,/.A,/ .C,,/.E,,/F,,/A,,/ | .[C,E,]/.F,/.A,/.B,/ .[E,C]/.A,/.C/.E/ | %87
 D/[K:treble] B/=e/B/ f/ F/B/F/- | =B!ped!c.c.c!ped-up! | z/ G/^c/G/ d/ D/G/D/ | %90
 ^G!ped!A.A.A!ped-up! |[K:bass] z/ (B,,/.C,/) (D,/.E,/) (F,/.G,/) (A,/ | %92
.B,/) ([E,B,]/.[D,B,]/) ([C,B,]/.[B,,B,]/) ([_A,,_A,]/.[G,,G,]/) ([F,,F,]/ | %93
!f!.[E,,E,]/) ([D,F,]/.[C,E,]/) ([B,,D,]/.[A,,C,]/) ([G,,B,,]/.[F,,A,,]/) ([E,,G,,]/ | %94
!ped! .F,,/) .[F,F]/.[D,D]/.[B,,B,]/!ped-up!!ped! .[F,,F,]/.[A,,A,]/.[C,C]/.[F,F]/!ped-up! | %95
 z/ (B,/.C/) (D/.E/)[K:treble] (F/.G/) (A/ | %96
.[FB]/) ([EG]/.[DF]/) ([CE]/.[B,D]/)[K:bass] ([A,C]/.[G,B,]/) ([F,A,]/ | %97
.B,/) (G,/._A,/) (B,/.C/) (D/.E/)[K:treble] (F/ | %98
 .[DG]/) ([ce]/.[=Bd]/) ([_Ac]/.[GB]/) ([FA]/.[EG]/) ([DF]/ | %99
.[CE]/)[K:bass]"_cresc." ([F,,F,]/.[G,,G,]/) ([A,,A,]/.[B,,B,]/) ([C,C]/.[D,D]/) ([E,E]/ | %100
.[F,F]/) ([G,G]/.[F,F]/) ([E,E]/.[D,D]/) ([C,C]/.[B,,B,]/) [A,,A,]/ | %101
!ff! .[D,,D,].[D,B,D]/>.[D,B,D]/ .[D,B,D] z | .[E,,E,].[D,B,D]/>.[D,B,D]/ .[E,B,E] z | %103
!p!!ped! [E,E]4!ped-up! | [F,F]4 |!ff! .[D,,D,].[D,B,D]/>.[D,B,D]/ .[D,B,D] z | %106
 .[E,,E,].[D,B,D]/>.[D,B,D]/ .[E,B,E] z |[K:treble]!p! ^D2 =E2 | ^F4 | %109
[K:bass]!p! .=B,.^A,/>.A,/ .B, z | .=B,.^A,/>.A,/ .B, z | .=B,.^A,/>.A,/ .B, z | %112
 .=B,.^A,/>.A,/ .B,.A,/>.A,/ | ^F,/=E/^D/^C/ =B,/^A,/^G,/^F,/ | %114
 =E,/^D,/^C,/=B,,/ _B,,/_C,/B,,/B,,/ | B,,/A,,/=E,/F,/ _G,/E,/F,/A,,/ | %116
 B,,/_A,/^F,/G,/ B,/^G,/=A,/C,/ | D,/C/A,/B,/ D/=B,/C/E,/ | E/^C/D/F,/ F/D/E/G,/ | %119
!ped! [A,CE] .A,,/>A,,/ .A,, z!ped-up! |!ped! .A,,.A,,/>.A,,/ .A,, z!ped-up! | %121
!ped! .D,.D,/>.D,/ .D, z!ped-up! |!ped! .D,.D,/>.D,/ .D, z!ped-up! | %123
!ped! A,,.A,,/>A,,/ .A,, z!ped-up! |!ped! A,,A,,/>A,,/ A,, z!ped-up! | %125
!ped! .D,.D,/>.D,/ .D, z!ped-up! |!ped! .D,.D,/>.D,/ .D, z!ped-up! | %127
!ped! .A,,!arpeggio!.[F,,,A,,]/>.[F,,A,,]/ .[F,,A,,] .[F,,C,F,]!ped-up! | %128
!ped! .[F,,D,].[F,,D,F,]/>.[F,,D,F,]/ .[F,,D,F,].[D,F,B,]!ped-up! | %129
!ped! x/ [E,A,C][E,A,C][E,A,C]!ped-up![D,F,B,]/ |!ped! x/ [E,A,C]A,!ped-up! F,/F,/ [B,,,B,,]/- | %131
 [B,,,B,,]/.[C,,C,]/!ped! [E,CE]2!f! !>![C,,C,]-!ped-up! | %132
 [C,,C,]/.[D,,D,]/!ped! [F,B,DF]2!f! !>![D,,D,]-!ped-up! | %133
 [D,,D,]/.[E,,E,]/!ped! [G,B,EG]2!f! !>![E,,E,]-!ped-up! | %134
 [E,,E,]/.[F,,F,]/!ped! [_A,B,D_A]2!f! !>![F,,F,]-!ped-up! | %135
 [F,,F,]/.[G,,G,]/[K:treble]!ped! [B,EGB]2[K:bass]!f! [G,,G,]-!ped-up! | %136
 [G,,G,]/.[=A,,=A,]/[K:treble]!ped! [CEFc]2[K:bass]!f! .[E,A,CF]!ped-up! | %137
 .[D,B,F]!ped![K:treble].[DFB] z7/4[K:bass] .[B,,B,]/4!ped-up! | %138
!ped! [B,,B,] z3/4 [B,,B,]/4!ped-up! .[B,,B,] .[D,F,B,]/>.[D,F,B,]/ | %139
 .[E,B,C]!ped!!pp!.[E,B,C] z7/4 .[B,,B,]/4!ped-up! | %140
!ped! [B,,B,] z3/4 [B,,B,]/4!ped-up! .[B,,B,] .[E,B,C]/>.[E,B,C]/ | %141
 .[F,B,D]!ped!!pp!.[F,B,D] z7/4!mp! .[B,,B,]/4!ped-up! | %142
!ped! [B,,B,] z3/4 [B,,B,]/4!ped-up! .[B,,B,] .[F,B,D]/>.[F,B,D]/ | %143
 .[G,B,E]/!p! B,/E/_A,/ A,/G,/B,/F,/ | F,/E,/B,/[DF]/ [CE]/[B,D]/[_A,C]/[G,B,]/ | %145
 !>![_G,=A,E].[F,B,D]/ z/ !>![F,B,D].[=E,B,C]/ z/ | !>![=E,B,C].[F,B,D]/ z/[K:treble] Bc/A/ | %147
[K:bass] !>![_G,,_G,].[F,,F,]/ z/ !>![F,,B,,F,].[=E,,=E,]/ z/ | !>![=E,,B,,=E,].[F,,D,F,]/ z/ GF | %149
!ped! [B,,,B,,]3 [B,,,B,,]/>[B,,,B,,]/!ped-up! |!ped! [D,,D,]3!ff! [D,,D,]/>[D,,D,]/!ped-up! | %151
 [F,,F,]3!ff! .[F,,F,]/>[F,,F,]/ |!ped! .[B,,B,].[B,,B,]/>[B,,B,]/ .[D,D].[D,D]/>[D,D]/!ped-up! | %153
!ped! .[F,F].[B,,B,]/>[B,,B,]/ .[D,D].[F,,F,]/>[F,,F,]/!ped-up! | %154
!ped! .[B,,B,].[D,,D,]/>[D,,D,]/ .[F,,F,].[B,,,B,,]/>[B,,,B,,]/!ped-up! | %155
!ped! z .F,/>F,/ .B,.D,/>D,/!ped-up! | %156
 .[F,,,F,,].[B,,,B,,]/>[B,,,B,,]/!ped! .[B,,,D,,B,,].[B,,,B,,]/>[B,,,B,,]/ | %157
 .[B,,,D,,B,,]!ped-up! z z7/4 B,/4 | B,, z z7/4 [B,,,B,,]/4 |!ped! [A,,,A,,] z A,, z | %160
 z4!ped-up! ||[K:F]!ped! (6:4:6A,,/E,/A,,/E,/A,,/E,/ (6:4:6A,,/E,/A,,/E,/A,,/E,/ | %162
 (6:4:6A,,/E,/A,,/E,/A,,/E,/ z7/4[K:treble]!p! e/4 | A2 z7/4 A/4 | E2 z7/4[K:bass] [E,,E,]/4 | %165
 [A,,,A,,] z!pp! [A,,E,] z | z2 z7/4[K:treble]!p! a/4 | e2 z7/4 e/4 | A2 z7/4[K:bass] [E,,E,]/4 | %169
 [A,,,A,,]2!ped-up!!pp!!ped! [^F,,D,^F,] z | z2 z7/4[K:treble]!p! a/4 | d2 z7/4 d/4 | %172
 A2 z7/4[K:bass] [A,,,A,,]/4!ped-up! |!ped! [^F,,,^F,,] z!pp! [F,,D,^F,] z | %174
 z2 z7/4[K:treble]!p! d'/4 | a2 z7/4 a/4 | d2 z7/4[K:bass] [A,,,A,,]/4 | %177
 [^F,,,^F,,] z!ped!!ped-up! [G,,,G,,] z3/4 D,/4 | G,, z3/4[K:treble] d'/4 g z3/4[K:bass] D/4 | %179
 B,7/2-!ped-up!!ped! B,/4 G,/4 | D,7/4B,,/4 G,,3/2D,,/4B,,,/4 | %181
!ped! (6:4:6G,,,/!ppp! D,/G,,/D,/G,,/D,/ (6:4:6G,,/D,/G,,/D,/G,,/D,/!ped-up! | %182
 (6:4:6G,,/D,/G,,/D,/G,,/D,/ (6:4:7G,,/D,/G,,/D,/G,,/!p! B,,/4G,,/4 | %183
!ped![I:staff -1] C2- C7/4[I:staff +1]A,/4!ped-up! |!p! ^F,7/4D,/4 C,3/2 C,,/4A,,,/4 | %185
!ped! ^F,,,!ppp! (3[^F,A,]/"_cresc."C/[F,A,]/ (6:4:6C/[F,A,]/C/[F,A,]/C/[F,A,]/!ped-up! | %186
 (6:4:6C/[^F,A,]/C/[F,A,]/C/[F,A,]/!f! (6:4:6D,/[^F,,A,,]/D,/[F,,A,,]/D,/[F,,A,,]/ | %187
!ped! [^F,A,] x x2!ped-up! | !^![_E,_E]3 .[A,,A,]/>[A,,A,]/ | %189
 !^![C,C].[^F,,^F,]/>[F,,F,]/ !^![A,,A,].[C,,C,]/>[C,,C,]/ | %190
 .[_E,,_E,].[A,,,A,,]/>[A,,,A,,]/ .[D,,D,].[D,,D,]/>[D,,D,]/ | z/ .[B,D]/.[A,C]/.[G,B,]/ [G,B,]2- | %192
 ([G,B,]/[B,D]/).[A,C]/.[G,B,]/ [G,B,]2 | ([G,_E]/!>(![EG]/).[DF]/.[CE]/!>)! [CE]2- | %194
 ([CE]/!>(![_EG]/).[DF]/.[CE]/!>)! [CE]/[K:treble].[CG]/.[CFG]/.[C_EG]/ | %195
 .[^C_EG]3/2 z/ .[CEG]3/2 z/ |[K:bass] .[_E,=C_E]3/2 z/ .[D,CD]3/2 z/ |!ped! G,, x!ped-up! x2 | %198
 x2 (6:4:3x2 x/!p! D/ |!ped! B,2- B,7/4G,/4!ped-up! | %200
!ped! D,7/4B,/4!ped-up!!ped! =B,3/2F,/4D,/4!ped-up! | G,, x2 z | x2 (6:4:3x x3/2!p! _A,/ | %203
!ped!"^cresc." G,2- G,7/4F,/4!ped-up! |!ped! D,7/4=B,,/4 G,,3/2!ff!F,,/4D,,/4!ped-up! | %205
!ff!!ped! .[=B,,,=B,,] !^![F,_A,=B,D]2 .[F,,F,]/>[F,,F,]/!ped-up! | %206
 !^![_A,,_A,]3 .[D,,D,]/>[D,,D,]/ | %207
 .[F,,F,].[=B,,,=B,,]/>[B,,,B,,]/ .[D,,D,][F,,,F,,]/>[F,,,F,,]/ | %208
 .[_A,,,_A,,].[D,,D,]/>[D,,D,]/ .[G,,,G,,] .[G,,G,]/>[G,,G,]/ |!p! C2- (C/_E/).D/.C/ | %210
 C2- (C/_E/).D/.C/ | .[_A,C]/.[A,C]/.[G,B,]/.[F,A,]/ [F,A,]2- | %212
 ([F,A,]/[_A,C]/).[G,B,]/.[F,A,]/ [F,A,]/.[F,D]/.[G,D]/.[A,D]/ | .[^F,=A,]3/2 z/ .[F,A,]3/2 z/ | %214
 .[G,=F]3/2 z/ .[G,D]3/2 z/ |!ped!"_cresc." C/=B,/C/B,/!ped-up!!ped! C/B,/C/D/ | %216
!ped! _E/D/E/F/!ped-up!!ped! G/G,/_A,/!ped-up!G,/ | %217
!mf! !^![C,,C,]2- [C,,C,]/.[_E,,_E,]/.[D,,D,]/.[C,,C,]/ | .[G,,G,].[F,,F,].[D,,D,]!>![G,,G,]- | %219
 [G,,G,].[_E,,_E,].[C,,C,]!>![G,,G,]- | [G,,G,].[D,,D,].[=B,,,=B,,]!>![G,,G,]- | %221
 [G,,G,].[F,,F,].[_E,,_E,].[D,,D,] | .[C,,C,].[^C,,^C,].[D,,D,].[D,-D] | %223
!mf![I:staff -1] B,/[I:staff +1].[B,D]/.[A,C]/.[G,B,]/ .[A,C]/.[G,B,]/!f!.C/!mf!.[G,B,]/ | %224
 ([G,B,]/[^F,A,]/).[F,A,]/.[A,C]/ .[F,A,]/.[A,C]/!f!.[G,B,]/!mf!.[F,A,]/ | %225
 (!>![A,C]/[G,B,]/)!f!.[G,B,]/!mf!.[B,D]/ .[B,D]/.[B,D]/!f!.[A,C]/!mf!.[G,B,]/ | %226
 (!>!B,/A,/)!f!.A,/!mf!.C/ .A,/.C/!f!.B,/!mf!.A,/ | %227
 (!>!C/B,/)!f!.B,/!mf!.A,/ (!>!A,/G,/)!f!.G,/!mf!.F,/ | %228
 (!>!F,/_E,/)!f!.E,/!mf!.D,/ .C,/.D/!f!.C/!mf!.B,/ | %229
 (!>!B,/A,/)!f!.[A,C]/.[G,B,]/ ([G,B,]/[F,A,]/).A,/.[A,C]/ | %230
 ([A,C]/[B,D]/).[B,D]/.[C_E]/ [CE]/ x3/2 | B,2- B,/.[DF]/.[C_E]/.[B,D]/ | .F._E.CF- | F.D.B,F- | %234
 F.C .A,/[K:treble].A/.G/.F/ | %235
 .[B,DB]/[K:bass] .[F,,F,]/.[_E,,_E,]/.[D,,D,]/ .[C,,C,]/.[B,,,B,,]/.[A,,,A,,]/.[B,,,B,,]/ | %236
 (!>![B,,D,]/[A,,C,]/).[A,,C,]/.[C,_E,]/ .[A,,,A,,]/.[C,E,]/.[B,,D,]/.[A,,C,]/ | %237
 (!>![C,_E,]/[B,,D,]/).[B,,D,]/.[D,F,]/ .[D,,D,]/.[D,F,]/.[C,E,]/.[B,,D,]/ | %238
 (!>![D,F,]/[C,_E,]/).[C,E,]/.[E,F,]/ .[_E,,E,]/.[E,F,]/.[D,F,]/.[C,E,]/ | %239
 (!>![C,_E,]/[B,,D,]/).[B,,D,]/.[D,F,]/ .[D,,D,]/.[D,F,]/.[C,D,]/.[B,,D,]/ | %240
 ([B,,G,]/[A,,F,]/).[A,,F,]/.[B,,G,]/ (G,/F,/) x | %241
 ([B,,G,]/[A,,F,]/).[A,,F,]/.[B,,G,]/ (G,/F,/) x | %242
!ped! (!>![A,,,A,,]/[^G,,,^G,,]/).[G,,,G,,]/.[A,,,A,,]/ .[G,,,G,,]/.[=B,,,=B,,]/.[A,,,A,,]/.[G,,,G,,]/!ped-up! | %243
!ped! (!>![A,,,A,,]/[^G,,,^G,,]/).[G,,,G,,]/.[A,,,A,,]/!ped-up! .[G,,,G,,]/.[=B,,,=B,,]/.[A,,,A,,]/.[=G,,,=G,,]/ | %244
!ped! !>![G,,,G,,]/.[^F,,,^F,,]/.[F,,,F,,]/.[G,,,G,,]/!ped-up! .[F,,,F,,]/.[A,,,A,,]/.[G,,,G,,]/.[F,,,F,,]/ | %245
!ped! !>![G,,,G,,]/.[^F,,,^F,,]/.[F,,,F,,]/.[G,,,G,,]/!ped-up! .[=F,,,=F,,]/.[A,,,A,,]/.[G,,,G,,]/.[F,,,F,,]/ | %246
!ped! (!>![F,,D,F,]/[E,,C,E,]/).[E,,C,E,]/.[F,,D,F,]/!ped-up! .[E,,C,E,]/.[A,,A,]/.[F,,D,F,]/.[E,,C,E,]/ | %247
!ped! (!>![F,,D,F,]/[E,,C,E,]/).[E,,C,E,]/.[F,,D,F,]/!ped-up! .[E,,C,E,]/.[A,,A,]/.[F,,D,F,]/.[E,,C,E,]/ | %248
!ped! (!>![E,,C,E,]/[D,,=B,,D,]/).[D,,B,,D,]/.[E,,C,E,]/!ped-up! .[D,,B,,D,]/.[F,,D,F,]/.[E,,C,E,]/.[D,,B,,D,]/ | %249
!ped! (!>![E,C]/[D,=B,]/).[D,B,]/.[E,C]/!ped-up! .[D,B,]/.[F,D]/.[E,C]/.[D,B,]/ | %250
!ped! (!>![E,,C,E,]/[D,,=B,,D,]/).[D,,B,,D,]/.[E,,C,E,]/!ped-up! .[D,,B,,D,]/.[F,,D,F,]/.[E,,C,E,]/.[D,,B,,D,]/ | %251
!ped! (!>![E,C]/[D,=B,]/).[D,B,]/.[E,C]/!ped-up! .[D,B,]/!>(!.[F,D]/.[E,C]/.[D,B,]/!>)! | %252
!p! .[D,,D,]/.[F,,F,]/.[E,,E,]/.[D,,D,]/ .[C,,C,]/.[=B,,,=B,,]/.[C,,C,]/.[D,,D,]/ | %253
 .[D,,D,]/.[F,,F,]/.[E,,E,]/.[D,,D,]/ .[C,,C,]/.[=B,,,=B,,]/.[C,,C,]/.[D,,D,]/ | %254
 [E,,E,]/ x/ x z/ .A,/.=B,/.C/ | C/ x/ x z/ .C/.D/.E/ | F/ x3/2 x2 | %257
 .D,/.F,/.E,/.D,/ .C,/.=B,,/.C,/.D,/ | .C.E,.E,,C- | C.E,.E,,C | =B, x x B,- | B, x x =B, | %262
 .C.G, .E,,/ .E/.E/.E/ | .E.G, .E,,/ .E/.E/.E/ | .E.E, .E,,/ .D/.E/.F/ | .E.E, .E,,/ .=B,/.C/.E/ | %266
!ped! [F,F]/[K:treble] .[FA]/.[FA]/.[FA]/!ped-up!!ped! [Cc]/[K:bass] .[C,C]/.[C,C]/.[C,C]/ | %267
!ped! [D,D]/[K:treble] .[DF]/.[DF]/.[DF]/!ped-up!!ped! [A,A]/[K:bass] .[A,,A,]/.[A,,A,]/.[A,,A,]/!ped-up! | %268
!ped! .[D,D]/.[D,D]/.[D,D]/.[D,D]/!ped-up!!ped! .[F,A,F]/.[F,A,F]/.[F,A,F]/.[F,A,F]/!ped-up! | %269
!ped! .[G,=B,G]/.[G,B,G]/.[G,B,G]/.[G,B,G]/!ped-up!!ped! .[A,C]/.[A,C]/.[A,C]/.[A,C]/!ped-up! | %270
 [^G,=B,E]/!p! .A,,/.=G,,/.F,,/ .E,,!pp! [A,C] | [^G,=B,E]/!p! .A,,/.=G,,/.F,,/ .E,,!pp! [A,C] | %272
 [^G,=B,E]/!p! .A,,/.=G,,/.F,,/ .E,,/ .[F,F]/.[E,E]/.[D,D]/ | %273
 .[C,C]/ .[F,,A,,]/.[E,,A,,]/.[D,,A,,]/ .[C,,A,,]/ .[D,,D,]/.[C,,C,]/.[=B,,,=B,,]/- | %274
 [B,,,B,,]/.[A,,,A,,]/.[C,,C,]/.[E,,E,]/ .[A,,A,] z | %275
 .[C,,C,]/.[E,,E,]/.[A,,A,]/.[=B,,=B,]/ .[C,C] z | %276
 .[=B,,,=B,,]/.[D,,D,]/.[F,,F,]/.[^G,,^G,]/ .[B,,=B,] z | %277
 .[D,,D,]/.[F,,F,]/.[^G,,^G,]/.[=B,,=B,]/ .[D,D] !>![A,,A,] | [A,,,A,,]3 !>![D,,D,] | %279
 [C,,C,]3 !>![F,,F,] | [E,,E,]3 !>![B,,B,] | [G,,G,]3 !>![D,D] | x3/2 A,/-!<(! A,D/C/ | z C2 G/F/ | %284
 z E2[K:treble] c/B/!<)! |[K:bass]!f! z[K:treble] G2 d/c/ | %286
!ped! !arpeggio![A,c][K:bass] x2 [CF]-!ped-up! | [CF] x2 [CF]- | %288
!ped![CF] x2!ped-up!!ped! [CE]-!ped-up! |[CE] x2 [C-E] | %290
!ped![CF] x z/ .[F,A,]/.[G,B,]/.[A,C]/!ped-up! | .C x z/ .[F,A,]/.[G,B,]/.[A,C]/ | %292
!ped! .[G,C] x z/ .[G,E]/.[A,F]/.[B,G]/!ped-up! | %293
!ped! .[B,G] x z/ .[E,G,]/.[F,A,]/.[G,B,]/!ped-up! | %294
!ped! .[B,G] x z/ .[G,E]/.[A,F]/.[B,G]/!ped-up! | %295
!ped! .[B,G] x z/ .[E,G,]/.[F,A,]/.[G,B,]/!ped-up! | %296
!ped! .[^C,B,^C]/.[G,G]/.[F,F]/.[E,E]/!ped-up!!ped! .[C,C]/.[E,E]/.[D,D]/.[C,C]/!ped-up! | %297
!ped! .[G,,G,]/.[B,,B,]/.[A,,A,]/.[G,,G,]/!ped-up!!ped! .[E,,E,]/.[G,,G,]/.[F,,F,]/.[E,,E,]/!ped-up! | %298
!ped! .[^C,,^C,]/.[E,,E,]/.[D,,D,]/.[C,,C,]/!ped-up!!ped! .[G,,,G,,]/.[B,,,B,,]/.[A,,,A,,]/.[G,,,G,,]/!ped-up! | %299
!ped! .E,/.F,/.E,/.D,/!ped-up!!ped! .^C,/ x/ x!ped-up! |!ped! [D,^F,A,]2 x2!ped-up! | %301
!f! !///-!!^![^F,,D,]2 ^F,2 | !///-!!^![^F,D]2 ^F2 | !///-!!^![^F,,D,]2 ^F,2 | %304
!ped! !///-!!^![^F,,,D,,]2 ^F,,2!ped-up! |!f! !///-!!^![^F,,D,]2 ^F,2 | !///-!!^![^F,D]2 ^F2 | %307
 !///-!!^![^F,,D,]2 ^F,2 |!ped! !///-![^F,,,D,,] ^F,, !///-![F,,D,] ^F,!ped-up! | %309
 !///-![^F,D] ^F !///-![^F,,D,] F, |!ped! !///-![^F,,,D,,] ^F,, !///-![F,,D,] ^F,!ped-up! | %311
 !///-![^F,D] ^F!ff!!ped-up!!ped! [^F,,D,]/4F,/4[F,,D,]/4F,/4!ped-up!!ped! [=F,,D,]/4=F,/4[F,,D,]/4F,/4 | %312
!ped! !///-![B,,,D,,F,,]2 B,,2!ped-up! | !///-![B,,,D,,F,,]2 B,,2 | %314
!ped! !>![F,,,F,,]7/4!>![F,,,F,,]/4 !^![A,,,F,,A,,]2-!ped-up! | %315
 [A,,,F,,A,,]7/4[A,,,F,,A,,]/4 !^![D,,A,,D,]2- | D x3 | [F,,D,F,] A,, D, C, | D,D, D, D, | %319
 D, D, D, =B,,/C,/ | D,D, D, D, | D, D, D, =B,,/C,/ |!f!!ped! !///-![C,^F,A,]2!ped-up!!ped! C2 | %323
!ff!!ped! !///-!!>!C,, C,!ped-up!!ped! !///-!!>!A,,, A,,!ped-up! | %324
!ped! !///-![G,,D,]2 G,2!ped-up! | %325
!ped! !>!G,,,/4!>!G,,/4!>!G,,,/4!>!G,,/4!ped-up!!ped! _E,,/4_E,/4E,,/4E,/4E,,/4E,/4E,,/4E,/4 _E,,,/4E,,/4E,,,/4E,,/4!ped-up! | %326
!ped! ^C,,,/4^C,,/4C,,,/4C,,/4 D,,,/4D,,/4D,,,/4D,,/4!ped-up!!ped! !///-!D,,, D,,!ped-up! | %327
 !///-!D,,,2 D,,2 |!ped! !arpeggio![D,,,D,,]!mf! ^C,!ped-up!!ped!!<(! D, E, | %329
!ped! ^F, G,!ped! A, A,!ped-up!!<)!!ped-up! |!fff!!ped! .[D,,,D,,]!mf! =B,,!ped-up!!ped! ^C, D, | %331
!ped! E, F,!ped-up!!ped! G, G,!ped-up! | %332
!fff!!ped! .[D,,,D,,]!mf! A,,!ped-up!!ped! =B,, ^C,!ped-up! | %333
!ped! D, E,!ped-up!!ped! F, F,!ped-up! | %334
!fff!!ped! .[D,,,D,,]!mf! ^G,,!ped-up!!ped! A,, =B,,!ped-up! | %335
!ped! ^C, D,!ped-up!!ped! E, E,!ped-up! | %336
!fff!!ped! .[D,,,D,,][K:treble] [G,E]/4!>(!G/4[G,E]/4G/4 [A,E]/4G/4[A,E]/4G/4 [=B,E]/4G/4B,/4G/4!ped-up! | %337
!ped! [^CE]/4G/4[CE]/4G/4 [DE]/4G/4[DE]/4G/4 E/4G/4E/4G/4 E/4G/4E/4G/4!ped-up!!>)! | %338
[K:bass]!ped! ^C,"^dolce"!pp! [A,^CEG]/[A,CEG]/ .[A,CEG] z!ped-up! | %339
!ped! z [A,,A,]/[A,,A,]/ .[A,,A,]!ped-up! z | z!ped! [A,D]/[A,D]/ .[A,D]!ped-up! z | %341
 [^FA][EG]/[DF]/ [DF][A,E]/[^F,D]/ |!ped! [D^F]G x2!ped-up! | %343
!ped! z [A,,A,]/[A,,A,]/ .[A,,A,]!ped-up!!p! [^C,,^C,]- | %344
 [C,,C,]/.[D,,D,]/.[^E,,^E,]/.[^F,,^F,]/ .[A,,A,] z | %345
 .[^E,,^E,]/.[^F,,^F,]/.[A,,A,]/.[^C,^C]/ .[D,D] z | %346
 .[=E,,=E,]/.[G,,G,]/.[A,,A,]/.[^C,^C]/ .[E,E] z | .[G,,G,]/.[^C,^C]/.[E,E]/.[^F,^F]/ .[G,G] z | %348
 .D,,/.^F,,/!<(!.^G,,/.A,,/ .A,, z | .^F,,/.A,,/.^C,/.D,/!<)!!mp! .D, z | %350
 .D,/.=F,/.^G,/.A,/!<(! .D,,/.F,,/.^G,,/.A,,/ | .F,/.A,/.^C/.D/ x2 | .G,/.^C/!<)!.E/.F/!>(! x2 | %353
 .G,/.=C/.E/.G/ x2!>)! | F,/[K:treble] F/A/F/ A/ A/d/A/ | ^d/ A/e/A/ .A.A | A/F/B/E/ B/ F/B/F/ | %357
 =B/ F/c/F/ .F.F |[K:bass] B,/(D,/.E,/) (^F,/.G,/) (A,/.B,/) C/ | %359
 D/ D D ([C,^F,]/.[B,,G,]/) ([A,,A,]/ | %360
.[G,,G,]/) ([=F,A,]/.[E,G,]/) ([D,F,]/.[C,E,]/) ([B,,D,]/.[A,,C,]/) [G,,B,,]/ | %361
 .[A,,,A,,]/.D,/.F,/.A,/ .[A,,A,] [A,^CEG] | G,/ (A,/.B,/) (=C/.D/) (E/.^F/) (G/ | %363
 A/) ([G,G]/.[^F,^F]/) ([_E,_E]/.[D,D]/) ([C,C]/.[B,,B,]/) ([A,,A,]/ | %364
.[G,,G,]/) (B,,/.C,/) (D,/._E,/) (F,/.G,/) (A,/ | %365
B,/) ([_EG]/.[DF]/) ([CE]/.[B,D]/) ([_A,C]/.[G,B,]/) [F,B,]/ | %366
 _E/ (G,/._A,/) (B,/.C/) (D/.=E/) ([DF]/ | %367
 .[^CG]/) ([B,D]/.[A,C]/) ([G,B,]/.[F,A,]/) ([E,G,]/.[D,F,]/) .[^C,E,]/ | %368
 .[F,,D,F,].[F,,D,F,]/>!>![F,,D,F,]/ .[^F,,D,^F,] z | %369
 .[G,,D,G,].[^F,,D,^F,]/>!>![F,,D,F,]/ .[G,,D,G,] z |[K:treble]!ped! [D=B]2 [=B,G]2!ped-up! | %371
 [D^F]2 [A,E]2 |[K:bass] .[D,,D,].[^C,,^C,]/>[C,,C,]/ .[D,,D,] z | %373
 .[_E,,_E,].[D,,D,]/>[D,,D,]/ .[E,,E,] z |[K:treble] G2 _A2 | B4 |[K:bass] ._E,.D,/>.D,/ E, z | %377
 ._E,.D,/>.D,/ E, z | ._E,.D,/>.D,/ E, z | ._E,.D,/>.D,/ .E,.D,/>.D,/ | B, z _E/D/C/B,/ | %381
 _A,/G,/F,/_E,/ D,/^C,/D,/D,/- | D,/^C,/^G,/A,/ B,/G,/B,/C,/ | D,/C/A,/B,/ D/=B,/^C/E,/ | %384
 F,/E/^C/D/ F/D/E/G,/ | z4 | [^CEG] [^C,,E,,]/4A,,/4[C,,E,,]/4A,,/4 !///-![C,,E,,] A,, | %387
!ped! !///-![G,,^C,]2 E,2!ped-up! |!ped! !///-![^F,,D,]2 ^F,2!ped-up! | %389
!ped! !///-![D,^F,]2 A,2!ped-up! |!ped! !///-![^C,,E,,]2 A,,2!ped-up! | %391
!ped! !///-![G,,^C,]2 E,2!ped-up! |!ped! !///-![^F,,D,]2 ^F,2!ped-up! | %393
!ped! !///-![D,^F,]2 A,2!ped-up! | %394
!ped! .[^C,E,A,] .[^C,,A,,C,]/>.[C,,A,,C,]/!ped-up!!ped! .[C,,A,,C,].[G,,C,E,]!ped-up! | %395
!ped! .[^F,,D,^F,] .[F,A,D]/>.[F,A,D]/!ped-up!!ped! .[D,A,D].[F,A,]!ped-up! | %396
!ped! .[^C,E,A,] .[^C,,A,,C,]/>.[C,,A,,C,]/!ped-up!!ped! .[C,,A,,C,].[G,,C,E,]!ped-up! | %397
!ped! .[=F,,D,=F,] .[F,A,D]/>.[F,A,D]/!ped-up!!ped! .[D,A,D].[F,A,]!ped-up! | %398
!ped! x/ EEED/!ped-up! |!ped! x/ EEE!ped-up!D,/- | %400
 .[D,,D,]/.[E,,E,]/!ped! [G,A,^CG]2!f! !>![E,,E,]-!ped-up! | %401
 [E,,E,]/.[F,,F,]/!ped! [A,DFA]2!f! !>![F,,F,]-!ped-up! | %402
 [F,,F,]/.[G,,G,]/[K:treble]!ped! [B,DEB]2[K:bass]!f! !>![G,,G,]-!ped-up! | %403
 [G,,G,]/.[A,,A,]/[K:treble]!ped! [CD^Fc]2[K:bass]!f! [A,,A,]-!ped-up! | %404
 [A,,A,]/.[B,,B,]/[K:treble]!ped! [DGBd]2[K:bass]!f! !>![=B,,=B,]-!ped-up! | %405
 [B,,B,]/.[^C,^C]/[E,E] [G,^CEG]>[G,,G,] | .[F,,F,].[F,A,D] z7/4 [D,D]/4 | %407
 .[D,D] z3/4 [D,D]/4 .[D,D] .[F,,D,F,]/>.[F,,D,F,]/ | .[G,,D,G,].[G,B,DE] z7/4 [D,D]/4 | %409
 .[D,D] z3/4 [D,D]/4 .[D,D] .[G,,D,G,]/>.[G,,D,G,]/ | .[A,,D,A,].[A,CD^F] z7/4 [D,D]/4 | %411
 .[D,D] z3/4 [D,D]/4 .[D,D] .[A,,D,A,]/>.[A,,D,A,]/ | .[B,,D,B,].[B,DG] z/[K:treble] G/B/A/ | %413
 [_EG]/[DF]/[CE]/[B,D]/ [CE]/[B,D]/ [B,DG] | ([B,DA].[B,_EG]/) z/ ([B,=EG].[A,F]/) z/ | %415
 ([G,DF].[G,_EG]/) z/!ped! [A,DFB][A,A]!ped-up! |[K:bass] z/ D/_E/B,/ z/ ^C/D/A,/ | %417
 z/ D/_E/B,/!ped! A,!ped-up!A, |!ped! [D,,D,]3!ped-up! .[D,,D,]/>[D,,D,]/ | %419
!ped! !>![F,,F,]3!ff! .[F,,F,]/>!>![F,,F,]/!ped-up! |!ped! [A,,A,]3 .[A,,A,]/>[A,,A,]/!ped-up! | %421
!ped! .[D,D].[D,D]/>[D,D]/ .[F,F].[F,F]/>[F,F]/!ped-up! | %422
!ped! .[A,A].[D,D]/>[D,D]/ .[F,F].[A,,A,]/>[A,,A,]/!ped-up! | %423
!ped! .[D,D].[F,,F,]/>[F,,F,]/ .[A,,A,].[D,,D,]/>[D,,D,]/!ped-up! |!ped! x3 F,/>F,/!ped-up! | %425
!ped! A,F,/>F,/!ped-up!!ped! x D,3/4 x/4!ped-up! | %426
!p!!ped! x z/ [F,A,]/[F,A,]/[F,A,]/ z/ [F,A,]/!ped-up! | %427
[F,A,]/[F,A,]/ z/ [F,A,]/[F,A,]/[F,A,]/ z/ [F,A,]/ |!p!!ped! !>![F,,F,]2- [F,,F,]7/4D,/4!ped-up! | %429
!ped! A,,3/2D,/4!ped-up!F,/4!ped! x/!pp! [G,B,]/[G,B,]/[G,B,]/!ped-up! | %430
!p!!ped! [^CE] z/ [B,C]/[B,C]/[B,C]/ z/ [B,C]/!ped-up! | [B,^C]/[B,C]/ z/ [B,C]/[B,C]/[B,C]/ z | %432
!ped! ^C2 C/[K:treble]B/A/G/!ped-up! | [EG]/[EG]/[EG]/[EG]/!ped! [_E^F]/[EF]/[EF]/[EF]/!ped-up! | %434
!p! [_E^F][K:bass]!ped! z/ [^F,C_E]/[F,CE]/[F,CE]/ z/ [F,CE]/!ped-up! | %435
[^F,C_E]/[F,CE]/ z/ [F,CE]/[F,CE]/[F,CE]/ x/[K:treble] x/ |!ped! ^F2- F/A/G/F/!ped-up! | %437
 [_E^F]/[EF]/[EF]/[EF]/ [CEF]/[CEF]/[A,DF]/[A,DF]/ | %438
!p!!ped! [^F,DA][K:bass] z/ [F,A,D]/[F,A,D]/[F,A,D]/!ped-up! z/ [F,A,D]/ | %439
[^F,A,D]/[F,A,D]/z/[F,A,D]/!ped-up!!pp!!ped! [=F,=B,D]/[F,B,D]/[F,B,D]/[F,B,D]/ | D2- D/F/._E/.D/ | %441
!ped! D2!ped-up!!ped! E2!ped-up! | E!p!!ped! z/ [G,B,]/[G,B,]/[G,B,]/ z/ [G,B,]/!ped-up! | %443
[G,B,]/[G,B,]/ z/ [G,B,]/[G,B,]/[G,B,]/ z/ [G,B,]/ |!ped! E2- E/G/F/E/!ped-up! | %445
!ped! E2- E/ x3/2!ped-up! |!ped! z !arpeggio!.[E,,B,,^C,E,] z !arpeggio![G,,B,,C,E,G,]!ped-up! | %447
!ped! z !arpeggio!.[B,,^C,E,G,B,] z !arpeggio![C,E,G,B,^C]!ped-up! | %448
!ped! z !arpeggio!.[E,,B,,^C,E,] z !arpeggio![G,,B,,C,E,G,]!ped-up! | %449
!ped! z !arpeggio!.[^C,E,G,B,^C] z !arpeggio![E,G,B,CE]!ped-up! | %450
!ped! z !arpeggio!.[B,,^C,E,G,B,] z !arpeggio![C,E,G,^C]!ped-up! | %451
!ped! z !arpeggio!.[E,G,B,^CE] z !arpeggio![G,CEG]!ped-up! | %452
!ped! !>![F,,,F,,][K:treble] !^![A,=B,FA]2[K:bass] ^C/D/!ped-up! | %453
 .[E,E]/ ([D,D]/.[^C,^C]/) ([B,,B,]/.[A,,A,]/) ([G,,G,]/.[F,,F,]/) ([E,,E,]/ | %454
 .[D,D]/) ([C,C]/.[B,,B,]/) ([A,,A,]/.[G,,G,]/) ([F,,F,]/.[E,,E,]/) [D,,D,]/ | %455
 .[G,,G,] .[B,DG] [B,,B,][A,,A,] |!ped! z/ (A,/.B,/)"^cresc." (A,/.B,/) (=B,/!ped-up!.^C/) (D/ | %457
.E/) ([D,D]/.[^C,^C]/) ([_B,,_B,]/.[A,,A,]/) ([G,,G,]/.[F,,F,]/) ([E,,E,]/ | %458
 [D,,D,])!ped! !^![F,F]-[F,F]/ (G,/!ped-up!.[F,A,]/) ([G,B,]/ | %459
.[A,C]/) ([B,D]/.[C_E]/) ([DF]/.[EG]/)[K:treble] ([FA]/.[GB]/) [Ac]/ | %460
[K:bass] .[B,,B,] !>![B,D]2 [B,^C] | %461
 .[A,=C]/ ([G,B,]/.[^F,A,]/) ([_E,G,]/.[D,F,]/) ([C,E,]/.[B,,D,]/) ([A,,C,]/ | %462
 .[G,,B,,])!ped! !^![G,,B,,G,]2!ped-up! .[^F,,A,,^F,]/>[F,,A,,F,]/ | %463
 [^F,,A,,^F,]!ped!{/[G,,B,,]G,-} !^![G,B,]2!ped-up! .[G,,B,,G,]/>[G,,B,,G,]/ | %464
 [G,,B,,G,]!ped!{/[A,,^C,]A,-} !^![A,^C]2!ped-up!!ff! .[^G,,^G,]/>[G,,G,]/ | %465
 [^G,,^G,]!ped! !^![A,^CF]2!ped-up!!ff! .[A,,A,]/>[A,,A,]/ | %466
 .[A,,A,]!ped! .[B,,B,]/>[B,,B,]/ .[B,,B,]!ped-up!!ped!.[=B,,=B,]/>[B,,B,]/ | %467
 .[=B,,=B,].[C,C]/>[C,C]/ .[^C,^C].[A,,A,]/>A,/ |!ped! A,4-!ped-up! |!ped! A,4-!ped-up! | %470
!ped! A,4!ped-up! |!ped! A,,3!ped-up! ^G,,/A,,/ |!ped! A,,3!ped-up! ^G,,/A,,/ | %473
!ped! z .G.E!ped-up!A,- |!ped! A,.^F.D!ped-up!A,- |!ped! A,.E.A,!ped-up!A, | %476
!ped! z [A,A][A,A]!ped-up! z | .[A,,A,].[G,,G,].[E,,E,][A,,A,]- | [A,,A,].[F,,F,].[D,,D,][A,,A,]- | %479
 [A,,A,].[E,,E,].[^C,,^C,][A,,A,]- | [A,,A,]"^cresc.".[F,,F,].[D,,D,][A,,A,]- | %481
 [A,,A,].[G,,G,].[E,,E,][A,,A,]- | [A,,A,].[F,,F,].[D,,D,][A,,A,]- | %483
 [A,,A,].[F,,F,].[D,,D,][B,,B,]- | [B,,B,].[G,,G,].[E,,E,][^C,^C]- | [C,C].[A,,A,].[F,,F,][D,D]- | %486
 [D,D].[B,,B,].[G,,G,][_E,_E]- | [E,E].[C,C].[A,,A,]!f![^F,D^F]- | %488
 [F,DF].[D,D].[B,,B,]!ped-up!!ff!!ped![^G,D^G]- | [G,DG].[D,D].[B,,B,][_A,F_c]- | %490
 [A,Fc].[D,D].[B,,B,][G,B,G]- | [G,B,G].[_E,_E].[B,,B,][G,G] | [G,G].[D,D].[B,,B,][G,G] | %493
 [G,G].[D,D].[A,,A,]!ped-up!!ped! [F,,A,,]/4F,/4[F,,A,,]/4F,/4 | %494
 [F,,A,,]/4F,/4[F,,A,,]/4F,/4 [F,,A,,]/4F,/4[F,,A,,]/4F,/4 [A,A][F^G] | %495
 [E=G]/ ([DF]/.[^CE]/) ([B,D]/.[A,C]/) ([G,B,]/.[F,A,]/) ([E,G,]/ | %496
.[D,D]/) ([C,C]/.[B,,B,]/) ([A,,A,]/.[G,,G,]/) ([F,,F,]/.[E,,E,]/) [D,,D,]/ | %497
 .[G,,G,].[B,,B,] .[A,,A,] .[A,^CEA] |!ped! !///-!A,,,2 A,,2!ped-up! | %499
!ped! x/ ([F,F]/.[E,E]/) ([D,D]/.[^C,^C]/) x ([G,,G,]/!ped-up! | %500
.[F,,F,]/) ([E,,E,]/.[D,,D,]/) ([C,,C,]/.[=B,,,=B,,]/) ([B,,=B,]/.[^C,^C]/) ([D,D]/ | %501
.[E,E]/) ([D,D]/.[^C,^C]/) ([B,,B,]/.[A,,A,]/) ([G,,G,]/.[F,,F,]/) (.[E,,E,]/ | %502
 [D,,D,]/) ([C,,C,]/.[B,,,B,,]/) ([A,,,A,,]/.[G,,,G,,]/) (!>![F,,,F,,]/.[E,,E,]/) ([D,,D,]/ | %503
.[B,,B,]/) ([A,,A,]/.[G,,G,]/) ([A,,A,]/.[B,,B,]/) ([G,,G,]/.[A,,A,]/) [G,G]/ | %504
!ped![G,G] z!ped-up! z/[K:treble] .G/.G/.G/ |!ped! [^CEG]2- [CEG]/!ped-up!.[CEG]/.[CEA]/.[CEB]/ | %506
 [^G,DF]3/2 z/ [_B,DE]3/2 z/ | .[A,E]3/2 z/ .[A,E]3/2 z/ | %508
[K:bass] [E,,E,]2- [E,,E,]/ .[G,B,]/.[F,A,]/.[E,G,]/ | [E,G,]2- [E,G,]/.[^C,G,]/.[C,A,]/.[C,B,]/ | %510
 .[^G,,=B,]3/2 z/ .[_B,,=G,D]3/2 z/ | .[A,,E,G,B,]3/2 z/ .[A,,E,G,A,]3/2 z/ | %512
!pp! D,,^C,,=C,,=B,,, | _B,,,A,,,=B,,,^C,, | D,,^C,,=C,,=B,,, | _B,,,A,,,=B,,,^C,, | %516
 D,,^C,,=C,,=B,,, | _B,,,A,,,=B,,,^C,, | D,,^C,,=C,,=B,,, | _B,,,A,,,=B,,,^C,, | %520
!ped!"_cresc." D,,^C,,!ped-up!!ped!=C,,!ped-up!=B,,, | %521
!p!!ped! _B,,,A,,,!ped-up!!ped!=B,,,^C,,!ped-up! | %522
!ped!"_cresc." [D,,D,]/[D,D]/[^C,^C]/[^C,,C,]/!ped-up!!ped! [=C,,=C,]/[C,=C]/[=B,,=B,]/[=B,,,B,,]/!ped-up! | %523
!mp!!ped! [_B,,,_B,,]/[B,,_B,]/[A,,A,]/[A,,,A,,]/!ped-up!!ped! [=B,,,=B,,]/[B,,=B,]/[^C,^C]/!ped-up![^C,,C,]/ | %524
!ped!"_cresc." [D,,D,]/[D,D]/[^C,^C]/[^C,,C,]/!ped-up!!ped! [=C,,=C,]/[C,=C]/[=B,,=B,]/!ped-up![=B,,,B,,]/ | %525
!mf!!ped! [_B,,,_B,,]/[B,,_B,]/[A,,A,]/[A,,,A,,]/!ped-up!!ped! [=B,,,=B,,]/[B,,=B,]/[^C,^C]/!ped-up![^C,,C,]/ | %526
!ped! [D,,D,]/[D,D]/[A,,,A,,]/[A,,A,]/!ped-up!!ped! [B,,,B,,]/[B,,B,]/[A,,,A,,]/!ped-up![A,,A,]/ | %527
!ped! [G,,,G,,]/[G,,G,]/[B,,,B,,]/[B,,B,]/!ped-up!!ped! [A,,,A,,]/[A,,A,]/[^C,,^C,]/!ped-up![C,^C]/ | %528
!ped! [D,,D,]/[D,D]/[A,,,A,,]/[A,,A,]/!ped-up!!ped! [B,,,B,,]/[B,,B,]/[A,,,A,,]/!ped-up![A,,A,]/ | %529
!ped! [G,,,G,,]/[G,,G,]/[B,,,B,,]/[B,,B,]/!ped-up!!ped! [A,,,A,,]/[A,,A,]/[^C,,^C,]/!ped-up![C,^C]/ | %530
!ped! .=CC, D,,C!ped-up! |!ped! .CC, D,,C!ped-up! |!ped! .B,B,, D,,B,!ped-up! | %533
!ped! .^C^C, D,,C!ped-up! |!ped! .CC, D,,C!ped-up! |!ped! .CC, D,,C!ped-up! | %536
!ped! .B,B,, D,,B,!ped-up! |!ped! .^C^C, D,,D!ped-up! |!ped! [A,A]2- [A,A]7/4[F,F]/4!ped-up! | %539
!ped! [D,D]7/4[A,,A,]/4 !>![F,,F,]3/2[A,,A,]/4!>![F,,F,]/4!ped-up! | %540
!ped! .[D,,D,] z3/4 !>![F,,F,]/4.[D,,D,] z3/4!ped-up! [A,,A,]/4 | %541
.[F,,F,] z3/4 [D,D]/4.[A,,A,] z3/4 [D,D]/4 | %542
!ped! [D,D]2 z/4 D,/4E,/4F,/4G,/4A,/4=B,/4^C/4!ped-up! | %543
!ped! [D,D]2 z/4!ff! D,/4E,/4F,/4G,/4A,/4=B,/4^C/4!ped-up! | %544
 [D,,D,]2- [D,,D,]/.[F,,F,]/.[E,,E,]/.[D,,D,]/ | .[A,,A,].[G,,G,].[E,,E,].[A,,A,] | %546
 [D,,D,] z !fermata!z2 |] %547
V:3
 x4 | x4 | x4 | x4 | x4 | x4 | x4 | x4 | x4 | x4 | x4 | x4 | x4 | x4 | x4 | x4 | x4 | x4 | x4 | %19
 x4 | x4 | x4 | x4 | [G,,,G,,] [_E,,G,,_E,]3- | [E,,G,,E,]4- | [E,,G,,E,] x3 | x4 | A,,4 | x4 | %29
 A,,4 | x4 | x4 | x4 | x4 | x4 | x4 | x4 | x4 | x4 | x4 | x4 | x4 | x4 | x4 | x4 | x4 | x4 | x4 | %48
 x4 | x4 | x4 | x4 | x4 | x4 | x4 | x2[K:treble] x2 |[K:bass] x4 | x2[K:treble] x2 |[K:bass] x4 | %59
 x/[K:treble] x2[K:bass] x3/2 | x/[K:treble] x2[K:bass] x3/2 | x4 | [A,,,A,,]4 | x4 | x4 | x4 | %66
 x4 | [G,,G,]/A,,/[F,,F,]/A,,/ [E,,E,]/A,,/[D,,D,]/A,,/ | %68
 [^C,,^C,]/A,,/[D,,D,]/A,,/ [E,,E,]/A,,/[F,,F,]/A,,/ | [G,,G,] x !>![F,,G,] x | %70
 [E,,E,] x [_D,,_D,] x | [C,,C,] z [_G,,_G,] x | [F,,F,] x [F,,F,] x | x4 | x2 F,2- | %75
 F, F,/F,/ .F, z | x4 | x4 | x4 ||[K:Bb] x4 | x4 | x4 | x4 | x4 | x4 | x4 | x4 | %87
 x[K:treble] =ef D- | [DF][A,F][A,F][A,F] | B,2 x [B,G] | [=B,D][CD][^F,D][F,D] | %91
[K:bass] [G,,G,]2 x3/2 F,/- |F,/ x/ x x2 | x4 | x4 | G,4[K:treble] | x5/2[K:bass] x3/2 | %97
 E,4[K:treble] | x4 | x/[K:bass] x7/2 | x4 | x4 | x4 | x4 | x4 | x4 | x4 |[K:treble] x4 | x4 | %109
[K:bass] z2 .B,,.^A,,/>.A,,/ | .=B,, z .B,,.^A,,/>.A,,/ | .=B,, z .B,,.^A,,/>.A,,/ | %112
 .=B,,^A,,/>A,,/ .B,,A,,/>A,,/ | ^F,, x x2 | x4 | x4 | x4 | x4 | x4 | z !arpeggio!F,,,2 .A,,, | %120
 z A,,,2 .F,, | z F,,2 B,, | z B,,2 F, | z !arpeggio!F,,,2 .A,,, | z A,,,2 .F,, | z F,,2 B,, | %126
 z B,,2 F, | x4 | x4 | F,,/E,/F,,/E,/ F,,/E,/F,,/D,/ | F,,/E,/F,,/[C,E,]/ F,,/[A,,E,]/[F,,D,]/ x/ | %131
 x4 | x4 | x4 | x4 | x[K:treble] x2[K:bass] x | x[K:treble] x2[K:bass] x | %137
 x[K:treble] x11/4[K:bass] x/4 | x4 | x4 | x4 | x4 | x4 | x4 | x4 | x4 | x2[K:treble] [DF][EF] | %147
[K:bass] x4 | x2 [F,B,D]F, | x4 | x4 | x4 | x4 | x4 | x4 | %155
 .[D,,D,].[F,,,F,,]/>[F,,,F,,]/ .[B,,,B,,].[D,,,D,,]/>[D,,,D,,]/ | x4 | x4 | x4 | x4 | x4 || %161
[K:F] x4 | x15/4[K:treble] x/4 | x4 | x15/4[K:bass] x/4 | x4 | x15/4[K:treble] x/4 | x4 | %168
 x15/4[K:bass] x/4 | x4 | x15/4[K:treble] x/4 | x4 | x15/4[K:bass] x/4 | x4 | x15/4[K:treble] x/4 | %175
 x4 | x15/4[K:bass] x/4 | x4 | x7/4[K:treble] x2[K:bass] x/4 | x4 | x4 | x4 | x4 | %183
 [D,,D,] z [D,D] x | x4 | x4 | x4 | [C,,C,]3 .[C,C]/>[C,C]/ | x4 | x4 | x4 | [G,,G,] x x2 | x4 | %193
 x4 | x5/2[K:treble] x3/2 | x4 |[K:bass] x4 | %197
 (6:4:6G,,/!ppp!D,/[G,B,]/D,/[G,B,]/D,/ (6:4:6[G,B,]/D,/[G,B,]/D,/[G,B,]/D,/ | %198
 (6:4:6[G,B,]/D,/[G,B,]/D,/[G,B,]/D,/ (6:4:6[G,B,]/D,/[G,B,]/D,/[G,B,]/D/ | x4 | x2 G,, x | %201
 (6:4:6G,,/!ppp!D,/[F,=B,]/D,/[F,B,]/D,/ (6:4:6[F,B,]/D,/[F,B,]/D,/[F,B,]/D,/ | %202
 (6:4:6[F,=B,]/D,/[F,B,]/D,/[F,B,]/D,/ (6:4:6[F,B,]/D,/[F,B,]/D,/[F,B,]/ x/ | x4 | x4 | x4 | x4 | %207
 x4 | x4 | C, x x2 | x4 | x4 | x4 | x4 | x4 |{/^F,,} ^F,3/2 z/{/_A,,} _A,3/2 z/ | %216
{/G,,} G,3/2 z/ G, z | x4 | x4 | x4 | x4 | x4 | x4 | D,3 !^![D,-F,] | D,3 !^!D,- | %225
 D, !^!D,2 !^!D,- | D, !^![D,,D,]2 !^!D,- | D, !^!G,,2 !^!G,,- | G,, !^!C,,2 !^!C,- | C, x2 F,- | %230
 F, F,- F,/.[A,,A,]/.[G,,G,]/.[F,,F,]/ | B,, z z !^!F,- | F,3 !^!F,- | F, !^!F,2 !^!F,- | %234
 F, F,2[K:treble] x | x/[K:bass] x7/2 | x4 | x4 | x4 | x4 | x2 .[A,,,A,,]/.D,/.[B,,D,]/.[A,,D,]/ | %241
 x2 .[A,,,A,,]/.[D,,D,]/.[B,,,B,,]/.[A,,,A,,]/ | x4 | x4 | x4 | x4 | x4 | x4 | x4 | x4 | x4 | x4 | %252
 x4 | x4 | x/ .A,,/.=B,,/.C,/ .C, z | z/ .C,/.D,/.E,/ .E, z | z/ .F,/.E,/.D,/ .C,/.=B,,/.C,/.D,/ | %257
 x4 | E, x3 | x4 | z/ E,/F,/E,/ E,,/E,/E,/E,/ | E,/E,/F,/E,/ E,,/E,/E,/E,/ | E, x x/ A,/=B,/C/ | %263
 C x x/ A,/=B,/C/ | =B, x x/ B,/C/D/ | =B, x x/ z/ E, | x/[K:treble] x2[K:bass] x3/2 | %267
 x/[K:treble] x2[K:bass] x3/2 | x4 | x4 | x4 | x4 | x4 | x4 | x4 | x4 | x4 | x4 | x4 | x4 | x4 | %281
 x4 | .[C,C]/.[C,,C,]/.[F,,F,]/[A,,A,]/ C, z | .A,,/.C,/.D,/.E,/ .F, z | %284
 .G,,/.C,/.G,/.B,/ .G,[K:treble] z |[K:bass] .B,,/!>(!.G,/[K:treble].B,/.E/ .B, z!>)! | %286
 x[K:bass] .C,.C,,A,- | A,.C,.C,,A, | G,.C,.C,,G,- | G,.C,.C,,G, | A,.C,.C,, x | A,.C,.C,, x | %292
 G,.C,.C,, x | B,.C,.C,, x | B,.^C,.^C,, x | B,.^C,.^C,, x | x4 | x4 | x4 | %299
 .[E,,,E,,]/.[F,,,F,,]/.[E,,,E,,]/.[D,,,D,,]/ .[^C,,,^C,,]/.[B,,,B,,]/.[A,,,A,,]/.[G,,,G,,]/ | %300
 !///-![^F,,,D,,]2 ^F,,2 | x4 | x4 | x4 | x4 | x4 | x4 | x4 | x4 | x4 | x4 | x4 | x4 | %313
 x3 x/ x/4 !>![F,,,F,,]/4 | x4 | x4 | [D,,A,,D,]7/4[D,,D,]/4 !^![F,,D,F,]2- | %317
 x A,,/4A,/4A,,/4A,/4 D,/4D/4D,/4D/4 C,/4C/4C,/4C/4 | %318
 C,/4C/4[C,D,]/4C/4 B,,/4B,/4[B,,D,]/4B,/4 [A,,D,]/4A,/4[A,,D,]/4A,/4 [G,,D,]/4G,/4[G,,D,]/4G,/4 | %319
 [F,,D,]/4F,/4[F,,D,]/4F,/4 [G,,D,]/4G,/4[G,,D,]/4G,/4 [A,,D,]/4A,/4[A,,D,]/4A,/4 =B,,/4=B,/4C,/4C/4 | %320
 !>!C,/4[CD]/4[C,D,]/4[CD]/4 B,,/4B,/4[B,,D,]/4B,/4 [A,,D,]/4A,/4[A,,D,]/4A,/4 [G,,D,]/4G,/4[G,,D,]/4G,/4 | %321
 [^F,,D,]/4^F,/4[F,,D,]/4F,/4 [G,,D,]/4G,/4[G,,D,]/4G,/4 [A,,D,]/4A,/4[A,,D,]/4A,/4 =B,,/4=B,/4C,/4C/4 | %322
 x4 | x4 | x4 | x _E,,2 _E,,, | ^C,,,D,,, D,,,2 | x4 | %328
 x ^C,/4^C/4C,/4C/4 D,/4D/4D,/4D/4 E,/4E/4E,/4E/4 | %329
 ^F,/4^F/4F,/4F/4 G,/4G/4G,/4G/4 A,/4A/4A,/4A/4 A,/4A/4A,/4A/4 | %330
 x =B,,/4!<(!=B,/4B,,/4B,/4 ^C,/4^C/4C,/4C/4 D,/4D/4D,/4D/4 | %331
 E,/4E/4E,/4E/4 F,/4F/4F,/4F/4 G,/4G/4G,/4G/4 G,/4G/4G,/4G/4!<)! | %332
 x A,,/4!<(!A,/4A,,/4A,/4 =B,,/4=B,/4B,,/4B,/4 ^C,/4^C/4C,/4C/4 | %333
 D,/4D/4D,/4D/4 E,/4E/4E,/4E/4 F,/4F/4F,/4F/4 F,/4F/4F,/4F/4!<)! | %334
 z ^G,,/4!<(!^G,/4G,,/4G,/4 A,,/4A,/4A,,/4A,/4 =B,,/4=B,/4B,,/4B,/4 | %335
 ^C,/4^C/4C,/4C/4 D,/4D/4D,/4D/4 E,/4E/4E,/4E/4 E,/4E/4E,/4E/4!<)! | z[K:treble] G, A, =B, | %337
 ^C D E E |[K:bass] x4 | x4 | x4 | x4 | z [A,EG]/[A,EG]/ .[A,EG] z | x4 | x4 | x4 | x4 | x4 | x4 | %349
 x4 | x4 | A,, x .F,,/.A,,/.^C,/.D,/ | E, x .E,,/.G,,/.A,,/.^C,/ | E, x .G,,/.^C,/.E,/.G,/ | %354
 x2[K:treble] x [Fd] | [F^d][Ge] ^CC | D2 z D- | DA, A,A, |[K:bass] B,,4 | %359
 .A,/ (G,/.^F,/) (_E,/.D,/) x3/2 | x4 | x4 | B,,3 B, | .A,/ x3/2 x2 | x4 | .F,/ x3/2 x2 | _E,3 D, | %367
 x4 | x4 | x4 |[K:treble] G,4 | A,4 |[K:bass] x4 | x4 |[K:treble] x4 | B2 B,2 | %376
[K:bass] z2 ._E,,.D,,/>.D,,/ | _E,, z .E,,.D,,/>.D,,/ | _E,, z .E,,.D,,/>.D,,/ | %379
 ._E,,.D,,/>.D,,/ .E,,.D,,/>.D,,/ | B,, x x2 | x4 | x4 | x4 | x4 | x4 | x4 | x4 | x4 | x4 | x4 | %391
 x4 | x4 | x4 | x4 | x4 | x4 | x4 | A,,/[G,^C]/A,,/[G,C]/ A,,/[G,C]/A,,/[F,A,]/ | %399
 A,,/[G,^C]/A,,/[G,C]/ A,,/[G,C]/A,,/D,,/- | x4 | x4 | x[K:treble] x2[K:bass] x | %403
 x[K:treble] x2[K:bass] x | x[K:treble] x2[K:bass] x | x4 | x4 | x4 | x4 | x4 | x4 | x4 | %412
 x2 x/[K:treble] GF/ | x4 | x4 | x2 x G/=E/ |[K:bass] [B,,B,] x [A,,A,] x | [G,,G,] x [A,,F,]A,, | %418
 x4 | x4 | x4 | x4 | x4 | x4 | .[F,,F,].[A,,,A,,]/>[A,,,A,,]/ .[D,,D,].[F,,,F,,]/>[F,,,F,,]/ | %425
 [A,,,A,,].[D,,,D,,]/>[D,,,D,,]/ [D,,D,] .[D,,,D,,]/>[D,,,D,,]/ | [D,,,D,,] .D,, z .F,, | %427
 z .A,, z .D, | x4 | x2 G, z | z .E,, z .G,, | z .B,, z .^C, | %432
 z/!pp! [E,B,]/[E,B,]/[E,B,]/ [E,B,]/[K:treble][^CE]/[CE]/[CE]/ | B,A, C x | %434
 x[K:bass] .^F,, z .A,, | z .C, z _E,[K:treble] | %436
 z/!pp! [A,_E]/[A,E]/[A,E]/ [A,E]/[CE]/[CE]/[CE]/ | x4 | x[K:bass] !>!^F,, z A,, | z D, x2 | %440
 [F,G,=B,]/[F,G,B,]/[F,G,B,]/[F,G,B,]/ [F,G,B,]/[F,G,B,]/[F,G,B,]/[F,G,B,]/ | %441
 [F,G,=B,]/[F,G,B,]/[F,G,B,]/[F,G,B,]/ [G,_B,C]/[G,B,C]/[G,B,C]/[G,B,C]/ | [G,B,C] .C,, x .E,, | %443
 x .G,, x .B,, | z/!p! [G,B,]/[G,B,]/[G,B,]/ [G,B,]/[G,B,]/[G,B,]/[G,B,]/ | %445
 [G,B,]/[G,B,]/[G,B,]/[G,B,]/ [G,B,]/[G,B,]/[G,B,]/[G,B,]/ | x4 | x4 | x4 | x4 | x4 | x4 | %452
 x3[K:treble][K:bass] [F,A,] | x4 | x4 | x4 | [F,,F,]2 x F, |E,/ x/ x x2 | x4 | %459
 x5/2[K:treble] x3/2 |[K:bass] x4 | x4 | x4 | x4 | x4 | x4 | x4 | x4 | A, A,,3 | A,,3 ^G,,/A,,/ | %470
 A,,3 ^G,,/A,,/ | x4 | x4 | A,,3 ^G,,/A,,/ | A,,3 ^G,,/A,,/ | A,,3 ^G,,/A,,/ | %476
 [D,,D,]2- [D,,D,]/.[F,,F,]/.[E,,E,]/.[D,,D,]/ | x4 | x4 | x4 | x4 | x4 | x4 | x4 | x4 | x4 | x4 | %487
 x4 | x4 | x4 | x4 | x4 | x4 | x4 | x4 | x4 | x4 | x4 | x4 | %499
 !///-!A,,, A,, z/ ([B,,B,]/.[A,,A,]/) x/ | x4 | x4 | x4 | x4 | x5/2[K:treble] x3/2 | x4 | x4 | %507
 x4 |[K:bass] x4 | x4 | x4 | x4 | %512
 D,,/4D,/4D,,/4D,/4^C,,/4^C,/4C,,/4C,/4 =C,,/4=C,/4C,,/4C,/4=B,,,/4=B,,/4B,,,/4B,,/4 | %513
 B,,,/4_B,,/4B,,,/4B,,/4A,,,/4A,,/4A,,,/4A,,/4 =B,,,/4=B,,/4B,,,/4B,,/4^C,,/4^C,/4C,,/4C,/4 | %514
 D,,/4D,/4D,,/4D,/4^C,,/4^C,/4C,,/4C,/4 =C,,/4=C,/4C,,/4C,/4=B,,,/4=B,,/4B,,,/4B,,/4 | %515
 B,,,/4_B,,/4B,,,/4B,,/4A,,,/4A,,/4A,,,/4A,,/4 =B,,,/4=B,,/4B,,,/4B,,/4^C,,/4^C,/4C,,/4C,/4 | %516
 D,,/4D,/4D,,/4D,/4^C,,/4^C,/4C,,/4C,/4 =C,,/4=C,/4C,,/4C,/4=B,,,/4=B,,/4B,,,/4B,,/4 | %517
 B,,,/4_B,,/4B,,,/4B,,/4A,,,/4A,,/4A,,,/4A,,/4 =B,,,/4=B,,/4B,,,/4B,,/4^C,,/4^C,/4C,,/4C,/4 | %518
 D,,/4D,/4D,,/4D,/4^C,,/4^C,/4C,,/4C,/4 =C,,/4=C,/4C,,/4C,/4=B,,,/4=B,,/4B,,,/4B,,/4 | %519
 B,,,/4_B,,/4B,,,/4B,,/4A,,,/4A,,/4A,,,/4A,,/4 =B,,,/4=B,,/4B,,,/4B,,/4^C,,/4^C,/4C,,/4C,/4 | %520
 D,,/4D,/4D,,/4D,/4^C,,/4^C,/4C,,/4C,/4 =C,,/4=C,/4C,,/4C,/4=B,,,/4=B,,/4B,,,/4B,,/4 | %521
 B,,,/4_B,,/4B,,,/4B,,/4A,,,/4A,,/4A,,,/4A,,/4 =B,,,/4=B,,/4B,,,/4B,,/4^C,,/4^C,/4C,,/4C,/4 | x4 | %523
 x4 | x4 | x4 | x4 | x4 | x4 | x4 | %530
 [=C,A,C]/[C,A,C]/[C,,A,,C,]/[C,,A,,C,]/ [D,,,D,,]/[D,,,D,,]/[C,A,C]/[C,A,C]/ | %531
 [C,A,C]/[C,A,C]/[C,,A,,C,]/[C,,A,,C,]/ [D,,,D,,]/[D,,,D,,]/[C,A,C]/[C,A,C]/ | %532
 [B,,^G,B,]/[B,,G,B,]/[B,,,^G,,B,,]/[B,,,G,,B,,]/ [D,,,D,,]/[D,,,D,,]/[B,,G,B,]/[B,,G,B,]/ | %533
 [^C,A,^C]/[C,A,C]/[^C,,A,,C,]/[C,,A,,C,]/ [D,,,D,,]/[D,,,D,,]/[C,A,C]/[C,A,C]/ | %534
 [C,A,C]/[C,A,C]/[C,,A,,C,]/[C,,A,,C,]/ [D,,,D,,]/[D,,,D,,]/[C,A,C]/[C,A,C]/ | %535
 [C,A,C]/[C,A,C]/[C,,A,,C,]/[C,,A,,C,]/ [D,,,D,,]/[D,,,D,,]/[C,A,C]/[C,A,C]/ | %536
 [B,,^G,B,]/[B,,G,B,]/[B,,,^G,,B,,]/[B,,,G,,B,,]/ [D,,,D,,]/[D,,,D,,]/[B,,G,B,]/[B,,G,B,]/ | %537
 [^C,A,^C]/[C,A,C]/[^C,,A,,C,]/[C,,A,,C,]/ [D,,,D,,]/[D,,,D,,]/[D,A,D]/[C,A,D]/ | x4 | x4 | x4 | %541
 x4 | x4 | x2 x/4 D,,/4E,,/4F,,/4G,,/4A,,/4=B,,/4^C,/4 | x4 | x4 | x4 |] %547
V:4
 x4 | x4 | x4 | x15/4[K:bass] x/4 | x4 | x15/4[K:treble] x/4 | x4 | x15/4[K:bass] x/4 | x4 | x4 | %10
[K:treble] x4 | x15/4[K:bass] x/4 | x/[K:treble] x7/2 | x5/2[K:bass] x3/2 |[K:treble] x4 | x4 | %16
 x4 | x4 | x4 | x4 | x4 | x4 | x4 | x4 | x4 | x4 | x4 | x4 | x4 | x4 | x4 | x4 | x4 | x4 | x4 | %35
 x4 | x4 | x15/4[K:bass] x/4 | x4 | x15/4[K:treble] x/4 | x4 | x15/4[K:bass] x/4 | x4 | x4 | %44
[K:treble] x4 | x2 D x | x4 | x4 | x4 | x4 | x4 | x4 | x4 | x4 | x4 | x/!8va(! x5/2!8va)! x | x4 | %57
 x/!8va(! x5/2!8va)! x | x4 | x/!8va(! x2!8va)! x3/2 | x/!8va(! x2!8va)! x3/2 | x4 | x4 | %63
 G/A/F/A/ E/A/D/A/ | ^C/A/D/A/ E/A/F/A/ | G/!f!A/B/A/ G/!f!A/B/A/ | x4 | x4 | x4 | x4 | x4 | x4 | %72
 x4 | x4 | x4 | FD/D/ D_E/F/ | x4 | BA z2 | x4 ||[K:Bb] x4 | x4 | x4 | x4 | x4 | x4 | x4 | %86
 x3!8va(! x | f x2 b | z/ f/c'/f/ [fc'][fc'] | _b2 x g | z/ d/a/d/ [da][da]!8va)! | x4 | x4 | x4 | %94
 x4 | B4 | z/ (B/.c/) (d/.e/) f/g/ _a/ | x4 | x4 | x4 | x4 | x4 | x4 | B4 | B2 A2 | x4 | x4 | =B4 | %108
 =B2 ^A^f | x4 | x4 | x4 |!8va(! =e2 ^f2- | x/!8va)! x7/2 | x4 | x4 | x4 | x4 | x4 | [_Gc]2 z2 | %120
 x4 | x4 | x4 | x4 | x4 | x4 | x4 | [_Gc] z [A,CG]/F/E/C/ | [Bd] z [B,DG]/F/D/B/ | x4 | x4 | %131
 e/4!mp!f/4e/4d/4 c/4d/4c/4B/4 [FA]/4B/4c/4d/4 e/4f/4g/4a/4 | !^![Bb] x x2 | %133
 g/4!mp!a/4g/4f/4 e/4f/4e/4d/4 c/4d/4e/4f/4 g/4a/4b/4c'/4 | !^![dd'] x x2 | %135
 b/4!mp!c'/4b/4_a/4 g/4a/4g/4f/4 e/4f/4g/4a/4 b/4c'/4d'/4e'/4 | !^![ee'] x x2 | x2 x/ B/d/[Ac]/- | %138
 [Ac]/[GB][FA]/ [EG]/[DF]/ x | !>![Gc] z z/ GG/ | F/[EG]G/ [F_A=B]/[EG]/ x | %141
 !>![_Ad] z z/ F/A/[eg]/ | [df]/[ce]/[Bd]/_A/ [GB]/[FA_c]/ x | x4 | _A/G/g/f/!8va(! x2 | x4 | %146
 x2 (5:4:5b/4c'/4b/4a/4b/4 c'/a/!8va)! | x4 | x4 | x4 | x4 | x4 | x4 | x4 | x4 | x4 | x4 | x4 | %158
 x4 | x4 | x4 ||[K:F] x4 | x4 | x4 | x4 | A4- | A4- | A4 | x4 | x4 | x4 | x4 | x4 | x4 | x4 | x4 | %176
 x4 | x4 | x4 | x4 | x4 | x4 | x4 | x4 | x4 | z _e dc/>A/ | x4 | x4 | x4 | x4 | x4 | %191
 ([GB]/!>(![Bd]/).[Ac]/.[GB]/!>)! [GB]2- | ([GB]/!>(![Bd]/).[Ac]/.[GB]/!>)! [GB]2 | %193
 [cg]2 [cg]/g/f/_e/ | _eg- g/[eg]/[dg]/[cg]/ | x4 | x4 | x4 | x4 | %199
 (6:4:6z/ D/[GB]/_e/[GB]/D/ (6:4:6d/[GB]/D/b/d/B/ | %200
 (6:4:6z/ G/[Bd]/g/[Bd]/G/ (6:4:6g/[=Bd]/G/[Bd]/G/_A/ | x4 | x4 | %203
 (6:4:6=B,/!ppp!"^cresc."[DF]/B,/[DF]/B,/[DF]/ (6:4:6B,/[DF]/B,/[DF]/B,/[DF]/ | %204
 (6:4:6=B,/[DF]/=B/F/[Bd]/F/ (6:4:6[Bd]/F/[Bd]/F/[Bd]/F/ | x4 | x4 | x4 | x4 | x4 | x4 | x4 | x4 | %213
 x4 | x4 | x4 | x4 | x/ .G/.F/._E/ .D/.C/.=B,/!mf!.C/ | (!>!C/=B,/).B,/.D/ .B,/.D/.C/!mf!.B,/ | %219
 (!>!D/C/).C/!mf!._E/ .C/.E/.D/!mf!.C/ | (!>!_E/D/).D/!mf!.F/ .D/.F/.=E/!mf!.D/ | %221
 F/_E/E/D/ D/C/C/_B,/ | B,/A,/A/G/ ^F/G/[FA]/C/ | x3 D- | D3 !>!D- | D D/ x/ x !>!D | %226
 (G/^F/).F/.D/ .F/.A/.G/.F/ | (!>!A/G/).G/.^F/ (!>!F/G/).C/.D/ | (!>!D/_E/).A,/.=B,/ .C/.F/.E/.D/ | %229
 (!>!D/C/) x x2 | x F- F/F/!>!F- | F/ x3/2 x2 | x4 | x4 | x4 | x4 | x4 | x4 | x4 | x4 | x4 | x4 | %242
 x4 | x4 | x4 | x4 | x4 | x4 | x4 | x4 | x4 | x3 F- | F/.D/.E/.F/ D/F/E/D/ | F/.D/.E/.F/ D/F/E/F/ | %254
 E x x2 | x4 | ^G/.D/.E/.F/ .D/F/E/F/ | F/.D/.E/.F/ .D/.F/.E/[I:staff +1].=B,/ | %258
[I:staff -1] z/!pp! E/F/E/ E/E/E/E/ | z/!pp! E/F/E/ E/E/E/E/ | E2 ^G2- | G4 | %262
 d/!pp!.A/.=B/.c/ c2- | c/!pp!.A/.=B/.c/ c2 | a/!pp!.d/.e/.f/ ^g2- | g/.d/.e/.f/ ^g2 |!8va(! x4 | %267
 x4 | x2!8va)! x2 | x4 | [^G=B][Ac]- [Ac][Ac] | [^G=B][Ac]- [Ac][Ac] | [^G=B][Ac]- x2 | x4 | %274
 A x x2 | x4 | x4 | x4 | x4 | x4 | x4 | x4 | x4 | x3!8va(! x | x4 | x4 | f2- f/a/.g/.f/ | %287
 f2- f/a/.g/.f/ | f2 [e-b]2 | e/.e/.g/.a/ b/b/a/g/ | x/!8va)! .[FA]/.[GB]/.[Ac]/ [Ac]2- | %291
 [Ac]/.[FA]/.[GB]/.[Ac]/ [Ac]2 | [Bf]/.[Ge]/.[Af]/.[Bg]/ [Bg] x | [Bg]/.[Ge]/.[Af]/.[Bg]/ [Bg] x | %294
!8va(! [eb]/.[eg]/.[fa]/.[gb]/ [gb] x | [eb]/.[eg]/.[fa]/.[gb]/ [gb] x | x4!8va)! | x4 | x4 | x4 | %300
 x4 | x4 | x4 | x2 x7/4[K:bass][I:staff +1] A,,,/4 | x4 |[I:staff -1][K:treble] x15/4!8va(! x/4 | %306
 x4 | x2!8va)! x7/4[K:bass][I:staff +1] A,,,/4 | x7/4[I:staff -1][K:treble]!8va(! x5/4!8va)! x | %309
 x2[K:bass] x7/4[I:staff +1] A,,,/4 | x/[I:staff -1][K:treble] x7/2 | x4 | %312
 x5/2[K:bass] x[K:treble] x/ | x5/2[K:bass] x5/4[K:treble] x/4 | x4 | %315
 !^![Dd]7/4[A,A]/4 [F,F]3/2[I:staff +1][A,A]/4F/4 | x4 | x4 | x4 | x4 | x4 | x4 | x4 | x4 | x4 | %325
!8va(! x7/2!8va)! x/ | x4 | x4 |[I:staff -1] ^c'2!ff! !>!=c'2 | x3 (3d/=e/^f/ | g2!ff! !>![_B_b]2 | %331
 .e.d.^cb | a2!ff! !>!^g2 | x3 (3=B/^c/d/ | e3 .d | .^c._B.Ag | g2 z2 | x4 | x4 | x4 | %340
 G^F- F[EG]/[FA]/ | x4 | x4 | x3 A- | A x z2 | x4 | x3!8va(! x | x4 | x!8va)! x3 | x4 | x4 | x4 | %352
 x x .G x | x x2 ^c | [Ad]^c d a- | aa/>g/ [eg][eg] | f ef b | ff/>_e/ ee | x4 | x4 | x4 | %361
 x2 .^C/.E/.A/.^c/ | x4 | x4 | x4 | x4 |!8va(! x4 | x4 | x4 | x3!8va)! x | d4 | A4 | x4 | x4 | %374
 _e4 | _e2 d2 | x4 | x4 | x4 | _A2 !>!B2- | B/_A/G/[I:staff +1]F/[I:staff -1] x2 | x4 | x4 | x4 | %384
 x4 | G/E/^F/A,/ A/F/G/B,/ | .A.A/>.A/ .A z | .A,.A,/>.A,/ .A, z | .[Ad].[Ad]/>.[Ad]/ .[Ad] z | %389
 .D.D/>.D/ .D z | .A.A/>.A/ .A z | .A,.A,/>.A,/ .A, z | .[Ad].[Ad]/>.[Ad]/ .[Ad] z | %393
 .D.D/>.D/ .D z | A z A, z | [Ad] z ^F z | x4 | x4 | x4 | x4 | %400
 g/4!mp!a/4g/4f/4 e/4f/4e/4d/4 ^c/4d/4e/4f/4 g/4a/4=b/4^c'/4 | !^![dd'] x x2 | %402
 b/4!mp!c'/4b/4a/4 g/4a/4g/4f/4 e/4f/4g/4a/4 b/4c'/4d'/4e'/4 | !^![^f^f'] x x2 | %404
 d'/4!mp!_e'/4d'/4c'/4 b/4c'/4b/4a/4 g/4a/4b/4c'/4 d'/4=e'/4^f'/4g'/4 | !^![gg'] x x a | %406
 [ad']/ [fa][eg]/- [eg]/[df][ce]/ | [Bd]/[Ac]/[GB^c]/[FA]/ [FA] x | x/ g/b/f/- f/e[df]/ | %409
 [ce]/[Bd]/[Ac]/[GB^c]/ [GBc] x | x/ c/_e/B/- B/[I:staff +1]A[I:staff -1][gb]/ | %411
 [^fa]d/[c_e]/ [Bd]/[Ac]/ x | .[Gg]/!p! b/d'/a/ a/g/-g/d/ | c/d/[^fa]/g/ [fa]/g/ [gd'] | %414
 [ad'][g_e']/ x/ [g^c'][fd']/ x/ | [db][_eb]/ z/ [db][=ea]/^c/ | x4 | x2 [DA] [EA]/^C/ | x4 | x4 | %420
 x4 | x4 | x4 | x4 | x4 | x4 | x4 | x4 | A,/A,/A,/A,/ A,/A,/A,/[I:staff +1][F,A,]/ | %429
 [F,A,]/[F,A,]/[F,A,]/[F,A,]/[I:staff -1] ^CE | [GB] z z2 | x2 G3/2[I:staff +1]G/4E/4 | x4 | %433
[I:staff -1] x2 A/!pp!=c/B/z/4A/4 | x4 | x2 c3/2[I:staff +1]c/4A/4 | x4 | %437
[I:staff -1] [Ac]2 z/!pp! _e/d/z/4[db]/4 | x4 | [^Fd]7/4[Ac]/4 [_A=B]G/ x/ | x4 | %441
 x2 !arpeggio![G_Be] z/ c/ | B x [GB] x | x2 z/ g/e/z/4[cc']/4 | x4 | x4 | z/!p! [EG]/[EG]/ z/ x2 | %447
 [^c^c']z/>!p![Bb]/ x2 | z/"_cresc." [B^c]/[Bc]/ z/ x2 | [^c^c']z/>[Bb]/ x2 | %450
 z/ [B^c]/[Bc]/ z/ x2 | [gg']z/>[ee']/ x2!8va(! | x4 | x3/2!8va)! x5/2 | x4 | x4 | x4 | x4 | %458
 .d'"_ten." x3 | x4 | x4 | x4 | x4 | x4 | x4 | x!8va(! x3 | x4 | x15/4!8va)! x/4 | %468
 D2- D/.^F/.E/.D/ | A.G.E!>!A | A.^F.D!>!A- | A.E[I:staff +1].A,[I:staff -1]!>!A | A.^F.DA | x4 | %474
 x4 | x4 | [=fd'] x3 | x aa x | z AA x | x AA x | z/ A,/G/F/ E/D/^C/D/ | D/^C/C/E/ C/E/D/C/ | x4 | %483
 x4 | x4 | x4 | x4 | x4 | x4 | x4 | x4 | x4 | x4 | x2 x [Aa] | x4 | x4 | x4 | x4 | x4 | x4 | %500
 x/ (G/.F/) (E/.D/) (d/.e/) x/ | x4 | x4 | x4 | x4 | x4 | x4 | x4 | %508
 z/ .[G,G]/.[A,A]/.[B,B]/ [B,B]/ x3/2 | z/ .G/.A/.B/ B/ x/ x | [Fdf]3/2 z/ [Ee]3/2 z/ | %511
 [Dd]3/2 z/ [^C^c]3/2 z/ | x2[K:bass] x2 | x4 | [F,DF]2[K:treble] x2 | [FA]2 [GA]2 | %516
 [FA]2[K:bass] x2 | x7/2[K:treble] x/ | [A,FA]2 x2 | x2 [GAe]2 | [Fd] x3 | x2 [ga]2 | %522
 [fa] z/ .[FAd]/.[Fdf]z/.[Afa]/ | x2 [GAe]2 | x4 | x2 [gae']2 | x2 .[F,DF]/ x3/2 | %527
 x2 .[A,A]/ x3/2 | x2 .[F,DF]/ x3/2!8va(! | x4 | z7/4!8va)!!ff! [^F,D^F]/4.[F,DF] z!8va(! | %531
 z7/4!8va)!!ff! [^F,D^F]/4.[F,DF] z!8va(! | z7/4!8va)!!ff! [=B,D=F^G]/4.[B,DFG] z!8va(! | %533
 z7/4!8va)!!ff! [A,^CEA]/4[A,CEA] z!8va(! | z7/4!8va)!!ff! [^F,D^F]/4.[F,DF] z!8va(! | %535
 z7/4!8va)!!ff! [^F,D^F]/4.[F,DF] z!8va(! | z7/4!8va)!!ff! [=B,D=F^G]/4.[B,DFG] z!8va(! | %537
 z7/4!8va)!!ff! [A,^CFA]/4[A,CFA] z | x4 | x4 | x4 | x4 | x4 | x4 | x4 | x4 | x4 |] %547
V:5
 x4 | x4 | x4 | x15/4[K:bass] x/4 | x4 | x15/4[K:treble] x/4 | x4 | x15/4[K:bass] x/4 | x4 | x4 | %10
[K:treble] x4 | x15/4[K:bass] x/4 | x/[K:treble] x7/2 | x5/2[K:bass] x3/2 |[K:treble] x4 | x4 | %16
 x4 | x4 | x4 | x4 | x4 | x4 | x4 | x4 | x4 | x4 | x4 | x4 | x4 | x4 | x4 | x4 | x4 | x4 | x4 | %35
 x4 | x4 | x15/4[K:bass] x/4 | x4 | x15/4[K:treble] x/4 | x4 | x15/4[K:bass] x/4 | x4 | x4 | %44
[K:treble] x4 | x4 | x4 | x4 | x4 | x4 | x4 | x4 | x4 | x4 | x4 | x/!8va(! x5/2!8va)! x | x4 | %57
 x/!8va(! x5/2!8va)! x | x4 | x/!8va(! x2!8va)! x3/2 | x/!8va(! x2!8va)! x3/2 | x4 | x4 | x4 | x4 | %65
 x4 | x4 | x4 | x4 | x4 | x4 | x4 | x4 | x4 | x4 | x4 | x4 | x4 | x4 ||[K:Bb] x4 | x4 | x4 | x4 | %83
 x4 | x4 | x4 | x3!8va(! x | x4 | =bc' x2 | x4 | ^ga x2!8va)! | x4 | x4 | x4 | x4 | x4 | x4 | x4 | %98
 x4 | x4 | x4 | x4 | x4 | x4 | x4 | x4 | x4 | x4 | x4 | x4 | x4 | x4 |!8va(! x4 | x/!8va)! x7/2 | %114
 x4 | x4 | x4 | x4 | x4 | x4 | x4 | x4 | x4 | x4 | x4 | x4 | x4 | x4 | x4 | x4 | x4 | x4 | x4 | %133
 x4 | x4 | x4 | x4 | x4 | x4 | x4 | x4 | x4 | x4 | x4 | x2!8va(! x2 | x4 | x4!8va)! | x4 | x4 | %149
 x4 | x4 | x4 | x4 | x4 | x4 | x4 | x4 | x4 | x4 | x4 | x4 ||[K:F] x4 | x4 | x4 | x4 | x4 | x4 | %167
 x4 | x4 | x4 | x4 | x4 | x4 | x4 | x4 | x4 | x4 | x4 | x4 | x4 | x4 | x4 | x4 | x4 | x4 | x4 | %186
 x4 | x4 | x4 | x4 | x4 | x4 | x4 | x4 | x4 | x4 | x4 | x4 | x4 | x4 | x4 | x4 | x4 | x4 | x4 | %205
 x4 | x4 | x4 | x4 | x4 | x4 | x4 | x4 | x4 | x4 | x4 | x4 | x4 | x4 | x4 | x4 | x4 | x4 | x4 | %224
 x4 | x4 | x4 | x4 | x4 | x4 | x4 | x4 | x4 | x4 | x4 | x4 | x4 | x4 | x4 | x4 | x4 | x4 | x4 | %243
 x4 | x4 | x4 | x4 | x4 | x4 | x4 | x4 | x4 | x4 | x4 | x4 | x4 | x4 | x4 | x4 | x4 | A2 x2 | x4 | %262
 x4 | x4 | x4 | x4 |!8va(! x4 | x4 | x2!8va)! x2 | x4 | x4 | x4 | x4 | x4 | x4 | x4 | x4 | x4 | %278
 x4 | x4 | x4 | x4 | x4 | x3!8va(! x | x4 | x4 | x4 | x4 | b/.g/.a/.b/ x2 | x4 | x/!8va)! x7/2 | %291
 x4 | x4 | x4 |!8va(! x4 | x4 | x4!8va)! | x4 | x4 | x4 | x4 | x4 | x4 | x15/4[K:bass] x/4 | x4 | %305
[K:treble] x15/4!8va(! x/4 | x4 | x2!8va)! x7/4[K:bass] x/4 | x7/4[K:treble]!8va(! x5/4!8va)! x | %309
 x7/4[K:bass] x9/4 | x/[K:treble] x7/2 | x4 | x5/2[K:bass] x[K:treble] x/ | %313
 x5/2[K:bass] x5/4[K:treble] x/4 | x4 | x4 | x4 | x4 | x4 | x4 | x4 | x4 | x4 | x4 | x4 | %325
!8va(! x7/2!8va)! x/ | x4 | x4 | x4 | x4 | x4 | x4 | x4 | x4 | x4 | x4 | x4 | x4 | x4 | x4 | x4 | %341
 x4 | x4 | x4 | x4 | x4 | x3!8va(! x | x4 | x!8va)! x3 | x4 | x4 | x4 | x4 | x4 | x4 | x4 | x4 | %357
 =bc' x2 | x4 | x4 | x4 | x4 | x4 | x4 | x4 | x4 |!8va(! x4 | x4 | x4 | x3!8va)! x | x4 | x4 | x4 | %373
 x4 | x4 | x4 | x4 | x4 | x4 | x4 | x4 | x4 | x4 | x4 | x4 | x4 | x4 | x4 | x4 | x4 | x4 | x4 | %392
 x4 | x4 | x4 | x4 | x4 | x4 | x4 | x4 | x4 | x4 | x4 | x4 | x4 | x4 | x4 | x4 | x4 | x4 | x4 | %411
 x4 | x4 | x4 | x4 | x4 | x4 | x4 | x4 | x4 | x4 | x4 | x4 | x4 | x4 | x4 | x4 | x4 | x4 | x4 | %430
 x4 | x4 | x4 | x4 | x4 | x4 | x4 | x4 | x4 | x4 | x4 | x4 | x4 | x4 | x4 | x4 | x4 | x4 | x4 | %449
 x4 | x4 | x5/2!8va(! x3/2 | x4 | x3/2!8va)! x5/2 | x4 | x4 | x4 | x4 | x4 | x4 | x4 | x4 | x4 | %463
 x4 | x4 | x!8va(! x3 | x4 | x15/4!8va)! x/4 | x4 | x4 | x4 | x4 | x4 | x4 | x4 | x4 | x4 | x4 | %478
 x4 | x4 | x4 | x4 | x4 | x4 | x4 | x4 | x4 | x4 | x4 | x4 | x4 | x4 | x4 | x4 | x4 | x4 | x4 | %497
 x4 | x4 | x4 | x4 | x4 | x4 | x4 | x4 | x4 | x4 | x4 | x4 | x4 | x4 | x4 | x2[K:bass] x2 | x4 | %514
 x3/2[K:treble] x5/2 | x4 | x2[K:bass] x2 | x7/2[K:treble] x/ | x4 | x4 | x4 | x4 | x4 | x4 | x4 | %525
 x4 | x4 | x4 | x7/2!8va(! x/ | x4 | x7/4!8va)! x2!8va(! x/4 | x7/4!8va)! x2!8va(! x/4 | %532
 x7/4!8va)! x2!8va(! x/4 | x7/4!8va)! x2!8va(! x/4 | x7/4!8va)! x2!8va(! x/4 | %535
 x7/4!8va)! x2!8va(! x/4 | x7/4!8va)! x2!8va(! x/4 | x7/4!8va)! x2!8va(! x/4!8va)! | x4 | x4 | x4 | %541
 x4 | x4 | x4 | x4 | x4 | x4 |] %547
V:6
 x4 | x4 | x4 | x4 | x4 | x4 | x4 | x4 | x4 | x4 | x4 | x4 | x4 | x4 | x4 | x4 | x4 | x4 | x4 | %19
 x4 | x4 | x4 | x4 | x4 | x4 | x4 | x4 | x4 | x4 | x4 | x4 | x4 | x4 | x4 | x4 | x4 | x4 | x4 | %38
 x4 | x4 | x4 | x4 | x4 | x4 | x4 | x4 | x4 | x4 | x4 | x4 | x4 | x4 | x4 | x4 | x4 | %55
 x2[K:treble] x2 |[K:bass] x4 | x2[K:treble] x2 |[K:bass] x4 | x/[K:treble] x2[K:bass] x3/2 | %60
 x/[K:treble] x2[K:bass] x3/2 | x4 | x4 | x4 | x4 | x4 | x4 | x4 | x4 | x4 | x4 | x4 | x4 | x4 | %74
 x4 | x4 | x4 | x4 | x4 ||[K:Bb] x4 | x4 | x4 | x4 | x4 | x4 | x4 | x4 | x/[K:treble] x7/2 | x4 | %89
 x ^cd x | x4 |[K:bass] x4 | x4 | x4 | x4 | x5/2[K:treble] x3/2 | x5/2[K:bass] x3/2 | %97
 x7/2[K:treble] x/ | x4 | x/[K:bass] x7/2 | x4 | x4 | x4 | x4 | x4 | x4 | x4 |[K:treble] x4 | x4 | %109
[K:bass] x4 | x4 | x4 | x4 | x4 | x4 | x4 | x4 | x4 | x4 | x4 | x4 | x4 | x4 | x4 | x4 | x4 | x4 | %127
 x4 | x4 | x4 | x4 | x4 | x4 | x4 | x4 | x[K:treble] x2[K:bass] x | x[K:treble] x2[K:bass] x | %137
 x[K:treble] x11/4[K:bass] x/4 | x4 | x4 | x4 | x4 | x4 | x4 | x4 | x4 | x2[K:treble] x2 | %147
[K:bass] x4 | x2 x E/C/ | x4 | x4 | x4 | x4 | x4 | x4 | x4 | x4 | x4 | x4 | x4 | x4 ||[K:F] x4 | %162
 x15/4[K:treble] x/4 | x4 | x15/4[K:bass] x/4 | x4 | x15/4[K:treble] x/4 | x4 | x15/4[K:bass] x/4 | %169
 x4 | x15/4[K:treble] x/4 | x4 | x15/4[K:bass] x/4 | x4 | x15/4[K:treble] x/4 | x4 | %176
 x15/4[K:bass] x/4 | x4 | x7/4[K:treble] x2[K:bass] x/4 | x4 | x4 | x4 | x4 | x4 | x4 | x4 | x4 | %187
 x4 | x4 | x4 | x4 | x4 | x4 | x4 | x5/2[K:treble] x3/2 | x4 |[K:bass] x4 | x4 | x4 | x4 | x4 | %201
 x4 | x4 | x4 | x4 | x4 | x4 | x4 | x4 | x4 | x4 | x4 | x4 | x4 | x4 | x4 | x4 | x4 | x4 | x4 | %220
 x4 | x4 | x4 | x4 | x4 | x4 | x4 | x4 | x4 | x4 | x4 | x4 | x4 | x4 | x5/2[K:treble] x3/2 | %235
 x/[K:bass] x7/2 | x4 | x4 | x4 | x4 | x4 | x4 | x4 | x4 | x4 | x4 | x4 | x4 | x4 | x4 | x4 | x4 | %252
 x4 | x4 | x4 | x4 | x4 | x4 | x4 | x4 | x4 | x4 | x4 | x4 | x4 | x4 | %266
 x/[K:treble] x2[K:bass] x3/2 | x/[K:treble] x2[K:bass] x3/2 | x4 | x4 | x4 | x4 | x4 | x4 | x4 | %275
 x4 | x4 | x4 | x4 | x4 | x4 | x4 | x4 | x4 | x3[K:treble] x |[K:bass] x[K:treble] x3 | %286
 x[K:bass] x3 | x4 | x4 | x4 | x4 | x4 | x4 | x4 | x4 | x4 | x4 | x4 | x4 | x4 | x4 | x4 | x4 | %303
 x4 | x4 | x4 | x4 | x4 | x4 | x4 | x4 | x4 | x4 | x4 | x4 | x4 | x4 | x4 | x4 | x4 | x4 | x4 | %322
 x4 | x4 | x4 | x4 | x4 | x4 | x4 | x4 | x4 | x4 | x4 | x4 | x4 | x4 | x[K:treble] x3 | x4 | %338
[K:bass] x4 | x4 | x4 | x4 | x4 | x4 | x4 | x4 | x4 | x4 | x4 | x4 | x4 | x4 | x4 | x4 | %354
 x/[K:treble] x7/2 | x4 | x4 | x4 |[K:bass] x4 | x4 | x4 | x4 | x4 | x4 | x4 | x4 | x4 | x4 | x4 | %369
 x4 |[K:treble] x4 | x4 |[K:bass] x4 | x4 |[K:treble] x4 | x4 |[K:bass] x4 | x4 | x4 | x4 | x4 | %381
 x4 | x4 | x4 | x4 | x4 | x4 | x4 | x4 | x4 | x4 | x4 | x4 | x4 | x4 | x4 | x4 | x4 | x4 | x4 | %400
 x4 | x4 | x[K:treble] x2[K:bass] x | x[K:treble] x2[K:bass] x | x[K:treble] x2[K:bass] x | x4 | %406
 x4 | x4 | x4 | x4 | x4 | x4 | x5/2[K:treble] x3/2 | x4 | x4 | x4 |[K:bass] x4 | x2 x G,/E,/ | x4 | %419
 x4 | x4 | x4 | x4 | x4 | x4 | x4 | x4 | x4 | x4 | x4 | x4 | x4 | x5/2[K:treble] x3/2 | x4 | %434
 x[K:bass] x3 | x7/2[K:treble] x/ | x4 | x4 | x[K:bass] x3 | x4 | x4 | x4 | x4 | x4 | C, z z2 | %445
 x4 | x4 | x4 | x4 | x4 | x4 | x4 | x[K:treble] x2[K:bass] x | x4 | x4 | x4 | x4 | x4 | x4 | %459
 x5/2[K:treble] x3/2 |[K:bass] x4 | x4 | x4 | x4 | x4 | x4 | x4 | x4 | x4 | x4 | x4 | x4 | x4 | %473
 x4 | x4 | x4 | x4 | x4 | x4 | x4 | x4 | x4 | x4 | x4 | x4 | x4 | x4 | x4 | x4 | x4 | x4 | x4 | %492
 x4 | x4 | x4 | x4 | x4 | x4 | x4 | x4 | x4 | x4 | x4 | x4 | x5/2[K:treble] x3/2 | x4 | x4 | x4 | %508
[K:bass] x4 | x4 | x4 | x4 | x4 | x4 | x4 | x4 | x4 | x4 | x4 | x4 | x4 | x4 | x4 | x4 | x4 | x4 | %526
 x4 | x4 | x4 | x4 | x4 | x4 | x4 | x4 | x4 | x4 | x4 | x4 | x4 | x4 | x4 | x4 | x4 | x4 | x4 | %545
 x4 | x4 |] %547

